;FLAVOR:UltiGCode
;TIME:1313
;MATERIAL:937
;MATERIAL2:0
;NOZZLE_DIAMETER:0.4
;Generated with Cura_SteamEngine 4.0.0
M82 ;absolute extrusion mode

G92 E0
G10
;LAYER_COUNT:163
;LAYER:0
M107
;MESH:filcatch2.stl
G0 F3600 X115.649 Y130.53 Z0.3
;TYPE:WALL-INNER
G11
G1 F1800 X115.649 Y130.276 E0.03048
G1 X115.649 Y130.275 E0.0306
G1 X115.649 Y94.267 E4.35156
G1 X115.586 Y94.157 E4.36677
G1 X115.587 Y83.938 E5.59305
G1 X130.711 Y83.938 E7.40793
G1 X130.711 Y85.297 E7.57101
G1 X117.547 Y85.297 E9.15069
G1 X117.547 Y92.703 E10.03941
G1 X130.51 Y92.703 E11.59497
G1 X130.71 Y92.703 E11.61897
G1 X130.71 Y92.903 E11.63451
G1 X130.707 Y94.062 E11.77359
G1 X116.45 Y94.062 E13.48443
G1 X116.45 Y130.726 E17.88411
G1 X116.38 Y131.015 E17.91979
G1 X116.067 Y131.23 E17.96536
G1 X115.336 Y131.528 E18.06009
G1 X114.197 Y131.812 E18.20096
G1 X112.838 Y132.067 E18.36688
G1 X111.317 Y132.241 E18.55059
G1 X109.577 Y132.36 E18.75988
G1 X108.593 Y132.382 E18.87799
G1 X108.588 Y132.397 E18.87989
G1 X108.314 Y132.397 E18.91277
G1 X108.094 Y132.397 E18.93917
G1 X108.115 Y132.178 E18.95582
G1 X108.232 Y131 E19.09787
G1 X108.08 Y129.464 E19.28309
G1 X107.633 Y127.983 E19.46873
G1 X106.903 Y126.621 E19.65417
G1 X105.924 Y125.426 E19.83955
G1 X104.728 Y124.446 E20.02509
G1 X103.366 Y123.717 E20.21047
G1 X101.885 Y123.269 E20.39615
G1 X100.35 Y123.117 E20.58125
G1 X98.813 Y123.269 E20.76659
G1 X97.332 Y123.717 E20.95226
G1 X95.97 Y124.446 E21.13764
G1 X94.776 Y125.426 E21.323
G1 X93.795 Y126.621 E21.50853
G1 X93.066 Y127.983 E21.69391
G1 X92.618 Y129.464 E21.87958
G1 X92.466 Y131 E22.0648
G1 X92.618 Y132.536 E22.25002
G1 X93.066 Y134.017 E22.4357
G1 X93.795 Y135.379 E22.62108
G1 X94.776 Y136.574 E22.80661
G1 X95.97 Y137.554 E22.99197
G1 X97.332 Y138.283 E23.17735
G1 X98.813 Y138.731 E23.36302
G1 X100.35 Y138.883 E23.54836
G1 X101.885 Y138.731 E23.73346
G1 X103.338 Y138.291 E23.91564
G1 X103.454 Y138.466 E23.94083
G1 X103.581 Y138.659 E23.96856
G1 X103.532 Y138.686 E23.97527
G1 X103.311 Y138.753 E23.99337
G1 X101.975 Y139.158 E24.1609
G1 X100.35 Y139.318 E24.35684
G1 X98.725 Y139.158 E24.55278
G1 X97.166 Y138.686 E24.74825
G1 X95.73 Y137.917 E24.94372
G1 X94.467 Y136.882 E25.13967
G1 X93.432 Y135.619 E25.33562
G1 X92.663 Y134.183 E25.53109
G1 X92.191 Y132.625 E25.72644
G1 X92.031 Y131 E25.92239
G1 X92.191 Y129.375 E26.11833
G1 X92.663 Y127.817 E26.31368
G1 X93.432 Y126.381 E26.50915
G1 X94.467 Y125.118 E26.7051
G1 X95.73 Y124.083 E26.90105
G1 X97.166 Y123.314 E27.09653
G1 X98.725 Y122.842 E27.29199
G1 X100.35 Y122.682 E27.48793
G1 X101.975 Y122.842 E27.68388
G1 X103.532 Y123.314 E27.87911
G1 X104.968 Y124.083 E28.07459
G1 X106.231 Y125.118 E28.27054
G1 X107.266 Y126.381 E28.46649
G1 X108.035 Y127.817 E28.66196
G1 X108.576 Y129.609 E28.88659
G1 X109.577 Y129.62 E29.00671
G1 X111.317 Y129.739 E29.216
G1 X112.838 Y129.913 E29.39971
G1 X114.197 Y130.168 E29.56564
G1 X115.402 Y130.469 E29.71468
G1 X115.649 Y130.53 E29.73319
G0 F3600 X115.249 Y130.018
;TYPE:WALL-OUTER
G1 F1800 X115.249 Y129.763 E29.76379
G1 X115.249 Y129.762 E29.76391
G1 X115.249 Y94.373 E34.01059
G1 X115.205 Y94.296 E34.02123
G1 X115.186 Y94.234 E34.02901
G1 X115.187 Y83.81 E35.27989
G1 X115.193 Y83.746 E35.28761
G1 X115.206 Y83.702 E35.29311
G1 X115.264 Y83.615 E35.30566
G1 X115.351 Y83.557 E35.31821
G1 X115.395 Y83.544 E35.32371
G1 X115.459 Y83.538 E35.33143
G1 X130.836 Y83.538 E37.17667
G1 X130.953 Y83.56 E37.19095
G1 X131.033 Y83.614 E37.20254
G1 X131.092 Y83.702 E37.21525
G1 X131.105 Y83.746 E37.22075
G1 X131.111 Y83.81 E37.22847
G1 X131.111 Y85.697 E37.45491
G1 X117.947 Y85.697 E39.03459
G1 X117.947 Y92.303 E39.82731
G1 X130.911 Y92.303 E41.38299
G1 X131.111 Y92.303 E41.40699
G1 X131.111 Y92.503 E41.42253
G1 X131.107 Y94.231 E41.62989
G1 X131.09 Y94.302 E41.63865
G1 X131.033 Y94.386 E41.65083
G1 X130.951 Y94.442 E41.66275
G1 X130.902 Y94.456 E41.66886
G1 X130.839 Y94.462 E41.67646
G1 X116.85 Y94.462 E43.35514
G1 X116.85 Y130.8 E47.7157
G1 X116.844 Y130.8 E47.71642
G1 X116.733 Y131.258 E47.77297
G1 X116.259 Y131.583 E47.84193
G1 X115.459 Y131.91 E47.94564
G1 X114.283 Y132.203 E48.09108
G1 X112.901 Y132.462 E48.25981
G1 X111.348 Y132.64 E48.44739
G1 X109.591 Y132.76 E48.65872
G1 X108.883 Y132.776 E48.7437
G1 X108.876 Y132.797 E48.74635
G1 X107.719 Y132.797 E48.88519
G1 X107.686 Y132.797 E48.88915
G1 X107.584 Y132.797 E48.90139
G1 X107.686 Y132.458 E48.93022
G1 X107.689 Y132.426 E48.93386
G1 X107.83 Y131 E49.10581
G1 X107.686 Y129.542 E49.28162
G1 X107.262 Y128.137 E49.45773
G1 X106.569 Y126.844 E49.63377
G1 X105.64 Y125.71 E49.80968
G1 X104.505 Y124.78 E49.98577
G1 X103.212 Y124.088 E50.16175
G1 X101.807 Y123.663 E50.3379
G1 X100.35 Y123.519 E50.51359
G1 X98.891 Y123.663 E50.68952
G1 X97.486 Y124.088 E50.86566
G1 X96.193 Y124.78 E51.04165
G1 X95.06 Y125.71 E51.21754
G1 X94.129 Y126.844 E51.39361
G1 X93.437 Y128.137 E51.56959
G1 X93.012 Y129.542 E51.74574
G1 X92.868 Y131 E51.92155
G1 X93.012 Y132.458 E52.09736
G1 X93.437 Y133.863 E52.2735
G1 X94.129 Y135.156 E52.44949
G1 X95.06 Y136.29 E52.62555
G1 X96.193 Y137.22 E52.80145
G1 X97.486 Y137.912 E52.97743
G1 X98.891 Y138.337 E53.15358
G1 X100.35 Y138.481 E53.32951
G1 X101.807 Y138.337 E53.5052
G1 X103.212 Y137.912 E53.68135
G1 X103.474 Y137.771 E53.71705
G1 X104.037 Y138.623 E53.8396
G1 X104.157 Y138.805 E53.86576
G1 X103.964 Y138.908 E53.88231
G1 X103.687 Y139.057 E53.92006
G1 X102.055 Y139.552 E54.12471
G1 X100.35 Y139.72 E54.3303
G1 X98.645 Y139.552 E54.53589
G1 X97.011 Y139.057 E54.74077
G1 X95.508 Y138.253 E54.94531
G1 X94.183 Y137.166 E55.15097
G1 X93.096 Y135.841 E55.35663
G1 X92.292 Y134.338 E55.56117
G1 X91.797 Y132.705 E55.76594
G1 X91.629 Y131 E55.97153
G1 X91.797 Y129.295 E56.17712
G1 X92.292 Y127.662 E56.38189
G1 X93.096 Y126.159 E56.58643
G1 X94.183 Y124.834 E56.79209
G1 X95.508 Y123.747 E56.99775
G1 X97.011 Y122.943 E57.20229
G1 X98.645 Y122.448 E57.40717
G1 X100.35 Y122.28 E57.61276
G1 X102.055 Y122.448 E57.81835
G1 X103.687 Y122.943 E58.023
G1 X105.19 Y123.747 E58.22755
G1 X106.515 Y124.834 E58.4332
G1 X107.602 Y126.159 E58.63886
G1 X108.406 Y127.662 E58.84341
G1 X108.874 Y129.212 E59.0377
G1 X109.591 Y129.22 E59.12375
G1 X111.348 Y129.34 E59.33508
G1 X112.901 Y129.518 E59.52266
G1 X114.283 Y129.777 E59.69138
G1 X115.001 Y129.956 E59.78018
G1 X115.249 Y130.018 E59.79877
G0 F3600 X115.249 Y129.818
G0 X115.749 Y129.818
G0 X116.06 Y130.68
;TYPE:SKIN
G1 F1800 X116.039 Y130.766 E59.80939
G1 X116.039 Y94.163 E64.20175
G1 X115.976 Y94.053 E64.21696
G1 X115.977 Y84.328 E65.38396
G1 X130.321 Y84.328 E67.10524
G1 X130.321 Y84.907 E67.17472
G1 X117.157 Y84.907 E68.7544
G1 X117.157 Y93.093 E69.73672
G1 X130.319 Y93.093 E71.31616
G1 X130.318 Y93.672 E71.38564
G1 X116.06 Y93.672 E73.0966
G1 X116.06 Y130.68 E77.53756
G0 F3600 X115.722 Y130.95
G1 F1800 X115.213 Y131.157 E77.6035
G1 X114.125 Y131.428 E77.73805
G1 X112.778 Y131.681 E77.90252
G1 X111.29 Y131.851 E78.08224
G1 X109.55 Y131.97 E78.29153
G1 X108.526 Y131.993 E78.41444
G1 X108.624 Y131 E78.53418
G1 X108.525 Y129.998 E78.655
G1 X109.55 Y130.01 E78.77801
G1 X111.29 Y130.129 E78.9873
G1 X112.778 Y130.299 E79.16702
G1 X114.125 Y130.552 E79.33149
G1 X115.722 Y130.95 E79.52899
G0 F3600 X108.765 Y131.393
G1 F1800 X109.17 Y131.797 E79.59763
G0 F3600 X109.714 Y131.776
G1 F1800 X108.79 Y130.852 E79.75444
G0 F3600 X108.728 Y130.224
G1 F1800 X110.244 Y131.74 E80.01171
G0 F3600 X110.773 Y131.704
G1 F1800 X109.255 Y130.186 E80.26933
G0 F3600 X109.845 Y130.21
G1 F1800 X111.302 Y131.666 E80.5165
G0 F3600 X111.81 Y131.609
G1 F1800 X110.452 Y130.251 E80.74696
G0 F3600 X111.06 Y130.293
G1 F1800 X112.318 Y131.551 E80.96045
G0 F3600 X112.821 Y131.488
G1 F1800 X111.688 Y130.355 E81.15273
G0 F3600 X112.326 Y130.427
G1 F1800 X113.297 Y131.399 E81.3176
G0 F3600 X113.773 Y131.309
G1 F1800 X112.984 Y130.52 E81.4515
G0 F3600 X113.68 Y130.651
G1 F1800 X114.242 Y131.212 E81.54679
G0 F3600 X114.4 Y130.805
G1 F1800 X114.694 Y131.099 E81.59668
G0 F3600 X115.673 Y130.561
G0 X115.687 Y94.257
G0 X116.685 Y93.492
G1 F1800 X116.155 Y92.961 E81.68671
G0 F3600 X116.155 Y92.396
G1 F1800 X116.976 Y93.217 E81.82604
G0 F3600 X117.031 Y93.273
G1 F1800 X117.251 Y93.492 E81.86329
G0 F3600 X117.597 Y93.273
G1 F1800 X117.816 Y93.492 E81.90045
G0 F3600 X118.163 Y93.273
G1 F1800 X118.382 Y93.492 E81.93762
G0 F3600 X118.728 Y93.273
G1 F1800 X118.948 Y93.492 E81.97487
G0 F3600 X119.294 Y93.273
G1 F1800 X119.513 Y93.492 E82.01204
G0 F3600 X119.86 Y93.273
G1 F1800 X120.079 Y93.492 E82.0492
G0 F3600 X120.425 Y93.273
G1 F1800 X120.645 Y93.492 E82.08645
G0 F3600 X120.991 Y93.273
G1 F1800 X121.21 Y93.492 E82.12362
G0 F3600 X121.557 Y93.273
G1 F1800 X121.776 Y93.492 E82.16078
G0 F3600 X122.122 Y93.273
G1 F1800 X122.342 Y93.492 E82.19803
G0 F3600 X122.688 Y93.273
G1 F1800 X122.907 Y93.492 E82.2352
G0 F3600 X123.254 Y93.273
G1 F1800 X123.473 Y93.492 E82.27236
G0 F3600 X123.82 Y93.273
G1 F1800 X124.039 Y93.492 E82.30953
G0 F3600 X124.385 Y93.273
G1 F1800 X124.604 Y93.492 E82.34669
G0 F3600 X124.951 Y93.273
G1 F1800 X125.17 Y93.492 E82.38386
G0 F3600 X125.517 Y93.273
G1 F1800 X125.736 Y93.492 E82.42103
G0 F3600 X126.082 Y93.273
G1 F1800 X126.301 Y93.492 E82.45819
G0 F3600 X126.648 Y93.273
G1 F1800 X126.867 Y93.492 E82.49536
G0 F3600 X127.214 Y93.273
G1 F1800 X127.433 Y93.492 E82.53252
G0 F3600 X127.779 Y93.273
G1 F1800 X127.999 Y93.492 E82.56977
G0 F3600 X128.345 Y93.273
G1 F1800 X128.564 Y93.492 E82.60694
G0 F3600 X128.911 Y93.273
G1 F1800 X129.13 Y93.492 E82.6441
G0 F3600 X129.476 Y93.273
G1 F1800 X129.696 Y93.492 E82.68135
G0 F3600 X130.042 Y93.273
G1 F1800 X130.138 Y93.369 E82.69765
G0 F3600 X117.519 Y92.731
G0 X117.519 Y85.269
G0 X129.981 Y84.726
G1 F1800 X129.762 Y84.507 E82.73481
G0 F3600 X129.416 Y84.726
G1 F1800 X129.196 Y84.507 E82.77206
G0 F3600 X128.85 Y84.726
G1 F1800 X128.631 Y84.507 E82.80923
G0 F3600 X128.284 Y84.726
G1 F1800 X128.065 Y84.507 E82.84639
G0 F3600 X127.719 Y84.726
G1 F1800 X127.499 Y84.507 E82.88364
G0 F3600 X127.153 Y84.726
G1 F1800 X126.934 Y84.507 E82.92081
G0 F3600 X126.587 Y84.726
G1 F1800 X126.368 Y84.507 E82.95797
G0 F3600 X126.021 Y84.726
G1 F1800 X125.802 Y84.507 E82.99514
G0 F3600 X125.456 Y84.726
G1 F1800 X125.237 Y84.507 E83.03231
G0 F3600 X124.89 Y84.726
G1 F1800 X124.671 Y84.507 E83.06947
G0 F3600 X124.324 Y84.726
G1 F1800 X124.105 Y84.507 E83.10664
G0 F3600 X123.759 Y84.726
G1 F1800 X123.54 Y84.507 E83.1438
G0 F3600 X123.193 Y84.726
G1 F1800 X122.974 Y84.507 E83.18097
G0 F3600 X122.627 Y84.726
G1 F1800 X122.408 Y84.507 E83.21813
G0 F3600 X122.062 Y84.726
G1 F1800 X121.842 Y84.507 E83.25538
G0 F3600 X121.496 Y84.726
G1 F1800 X121.277 Y84.507 E83.29255
G0 F3600 X120.93 Y84.726
G1 F1800 X120.711 Y84.507 E83.32972
G0 F3600 X120.365 Y84.726
G1 F1800 X120.145 Y84.507 E83.36697
G0 F3600 X119.799 Y84.726
G1 F1800 X119.58 Y84.507 E83.40413
G0 F3600 X119.233 Y84.726
G1 F1800 X119.014 Y84.507 E83.4413
G0 F3600 X118.668 Y84.726
G1 F1800 X118.448 Y84.507 E83.47855
G0 F3600 X118.102 Y84.726
G1 F1800 X117.883 Y84.507 E83.51571
G0 F3600 X117.536 Y84.726
G1 F1800 X117.317 Y84.507 E83.55288
G0 F3600 X116.976 Y84.732
G1 F1800 X116.751 Y84.507 E83.59106
G0 F3600 X116.186 Y84.507
G1 F1800 X116.976 Y85.298 E83.72521
G0 F3600 X116.976 Y85.863
G1 F1800 X116.155 Y85.043 E83.86446
G0 F3600 X116.155 Y85.608
G1 F1800 X116.976 Y86.429 E84.00379
G0 F3600 X116.976 Y86.995
G1 F1800 X116.155 Y86.174 E84.14311
G0 F3600 X116.155 Y86.74
G1 F1800 X116.976 Y87.561 E84.28244
G0 F3600 X116.976 Y88.126
G1 F1800 X116.155 Y87.305 E84.42177
G0 F3600 X116.155 Y87.871
G1 F1800 X116.976 Y88.692 E84.5611
G0 F3600 X116.976 Y89.258
G1 F1800 X116.155 Y88.437 E84.70043
G0 F3600 X116.155 Y89.002
G1 F1800 X116.976 Y89.823 E84.83976
G0 F3600 X116.976 Y90.389
G1 F1800 X116.155 Y89.567 E84.97917
G0 F3600 X116.155 Y90.133
G1 F1800 X116.976 Y90.955 E85.11858
G0 F3600 X116.976 Y91.52
G1 F1800 X116.155 Y90.699 E85.25791
G0 F3600 X116.155 Y91.264
G1 F1800 X116.976 Y92.086 E85.39732
G0 F3600 X116.976 Y92.652
G1 F1800 X116.155 Y91.83 E85.53674
G1 X116.085 Y91.76
G0 F3600 X115.673 Y130.561
G0 X108.552 Y129.64
G0 X106.438 Y125.596
G0 X103.369 Y123.45
G0 X103.436 Y123.517
;TYPE:SKIN
G1 F1800 X104.021 Y123.82 E85.5577
G1 X104.63 Y124.146 E85.57967
G0 F3600 X104.721 Y124.237
G0 X105.601 Y124.834
G1 F1800 X106.514 Y125.747 E85.65714
G0 F3600 X107.11 Y126.626
G0 X107.201 Y126.717
G1 F1800 X107.527 Y127.326 E85.67585
G1 X107.831 Y127.913 E85.69376
G1 X108.322 Y129.536 E85.73968
G0 F3600 X108.385 Y129.598
G0 X107.67 Y127.967
G0 X106.938 Y126.602
G0 X105.952 Y125.398
G0 X104.868 Y124.51
G0 X103.074 Y123.439
G0 X103.018 Y123.383
G1 F1800 X102.613 Y123.26 E85.7495
G1 X101.517 Y123.013 E85.77557
G1 X100.278 Y122.905 E85.80442
G1 X98.739 Y123.063 E85.84031
G1 X97.223 Y123.527 E85.87709
G1 X95.765 Y124.332 E85.91573
G1 X94.54 Y125.369 E85.95296
G1 X93.541 Y126.633 E85.99034
G1 X92.854 Y127.927 E86.02433
G1 X92.4 Y129.452 E86.06124
G1 X92.251 Y131 E86.09732
G1 X92.408 Y132.571 E86.13394
G1 X92.932 Y134.227 E86.17424
G1 X93.628 Y135.489 E86.20767
G0 F3600 X93.762 Y135.623
G0 X94.53 Y136.674
G1 F1800 X94.673 Y136.816 E86.21976
G0 F3600 X95.724 Y137.585
G0 X95.858 Y137.719
G1 F1800 X96.511 Y138.089 E86.23856
G1 X97.569 Y138.581 E86.26779
G1 X98.775 Y138.938 E86.29929
G1 X100.346 Y139.095 E86.33884
G1 X102.117 Y138.886 E86.3835
G1 X103.201 Y138.557 E86.41188
G0 F3600 X103.275 Y138.727
G10
G0 X103.258 Y138.665
G0 X103.562 Y138.655
G0 X104.445 Y138.877
;MESH:NONMESH
G0 X104.999 Y138.51
G0 X111.408 Y133.502
G0 X111.32 Y132.221
G0 X115.71 Y130.608
G0 X115.649 Y130.53
;TIME_ELAPSED:34.442721
;LAYER:1
M106 S255
;MESH:filcatch2.stl
G0 F5400 X115.649 Y130.53 Z0.36
;TYPE:WALL-INNER
G11
G1 F2700 X115.649 Y130.275 E86.418
G1 X115.649 Y130.274 E86.41802
G1 X115.642 Y106.473 E86.98924
G1 X115.649 Y106.038 E86.99969
G1 X115.649 Y94.424 E87.27842
G1 X115.413 Y94.22 E87.28591
G1 X115.404 Y94.187 E87.28673
G1 X115.413 Y83.78 E87.5365
G1 X115.439 Y83.759 E87.5373
G1 X130.678 Y83.757 E87.90304
G1 X130.832 Y83.757 E87.90673
G1 X130.876 Y83.769 E87.90783
G1 X130.888 Y83.783 E87.90827
G1 X130.893 Y83.825 E87.90928
G1 X130.893 Y83.979 E87.91298
G1 X130.892 Y85.297 E87.94461
G1 X117.547 Y85.297 E88.26489
G1 X117.547 Y92.703 E88.44264
G1 X130.693 Y92.703 E88.75814
G1 X130.893 Y92.703 E88.76294
G1 X130.893 Y92.903 E88.76605
G1 X130.89 Y94.205 E88.7973
G1 X130.883 Y94.223 E88.79776
G1 X130.859 Y94.241 E88.79848
G1 X116.45 Y94.243 E89.14429
G1 X116.45 Y130.726 E90.01989
G1 X116.38 Y131.015 E90.02702
G1 X116.067 Y131.23 E90.03614
G1 X115.336 Y131.528 E90.05508
G1 X114.197 Y131.812 E90.08326
G1 X112.838 Y132.067 E90.11644
G1 X111.317 Y132.241 E90.15318
G1 X109.578 Y132.36 E90.19502
G1 X108.583 Y132.392 E90.21891
G1 X108.582 Y132.397 E90.21903
G1 X108.292 Y132.397 E90.22599
G1 X108.072 Y132.397 E90.23127
G1 X108.093 Y132.178 E90.2346
G1 X108.21 Y131 E90.26301
G1 X108.058 Y129.466 E90.30001
G1 X107.612 Y127.991 E90.33699
G1 X106.885 Y126.633 E90.37396
G1 X105.908 Y125.442 E90.41093
G1 X104.716 Y124.464 E90.44794
G1 X103.358 Y123.737 E90.4849
G1 X101.883 Y123.291 E90.52189
G1 X100.35 Y123.139 E90.55886
G1 X98.815 Y123.291 E90.59588
G1 X97.34 Y123.737 E90.63286
G1 X95.982 Y124.464 E90.66983
G1 X94.791 Y125.442 E90.70682
G1 X93.813 Y126.633 E90.7438
G1 X93.087 Y127.991 E90.78076
G1 X92.64 Y129.466 E90.81775
G1 X92.488 Y131 E90.85475
G1 X92.64 Y132.534 E90.89174
G1 X93.087 Y134.009 E90.92873
G1 X93.813 Y135.367 E90.96569
G1 X94.791 Y136.558 E91.00268
G1 X95.982 Y137.536 E91.03966
G1 X97.34 Y138.263 E91.07663
G1 X98.815 Y138.709 E91.11361
G1 X100.35 Y138.861 E91.15063
G1 X101.883 Y138.709 E91.18761
G1 X103.321 Y138.274 E91.22366
G1 X103.462 Y138.487 E91.22979
G1 X103.589 Y138.679 E91.23532
G1 X103.54 Y138.706 E91.23666
G1 X103.319 Y138.773 E91.24029
G1 X101.977 Y139.18 E91.27394
G1 X100.35 Y139.34 E91.31318
G1 X98.723 Y139.18 E91.35242
G1 X97.159 Y138.706 E91.39164
G1 X95.718 Y137.935 E91.43086
G1 X94.451 Y136.898 E91.47016
G1 X93.414 Y135.631 E91.50945
G1 X92.643 Y134.191 E91.54865
G1 X92.169 Y132.627 E91.58787
G1 X92.009 Y131 E91.62711
G1 X92.169 Y129.373 E91.66635
