;FLAVOR:UltiGCode
;TIME:2764
;MATERIAL:7630
;MATERIAL2:0
;NOZZLE_DIAMETER:0.4
;Generated with Cura_SteamEngine 3.6.0
M82 ;absolute extrusion mode

G92 E0
G10
;LAYER_COUNT:75
;LAYER:0
M107
G0 F3600 X87.485 Y95.971 Z0.3
;TYPE:SKIRT
G11
G1 F1800 X87.92 Y95.631 E0.06625
G1 X88.168 Y95.451 E0.10303
G1 X88.83 Y95.021 E0.19775
G1 X89.532 Y94.659 E0.29253
G1 X90.267 Y94.37 E0.38731
G1 X91.027 Y94.157 E0.48202
G1 X91.805 Y94.021 E0.5768
G1 X92.523 Y93.967 E0.6632
G1 X94.272 Y93.916 E0.87317
G1 X95.061 Y93.933 E0.96787
G1 X96.008 Y94.06 E1.08253
G1 X96.642 Y94.185 E1.16007
G1 X97.408 Y94.377 E1.25484
G1 X97.847 Y94.535 E1.31082
G1 X98.267 Y94.37 E1.36497
G1 X99.027 Y94.157 E1.45969
G1 X99.787 Y94.024 E1.55227
G1 X100.189 Y93.974 E1.60089
G1 X100.977 Y93.916 E1.6957
G1 X101.766 Y93.938 E1.79042
G1 X102.811 Y94.093 E1.91719
G1 X103.082 Y94.152 E1.95047
G1 X103.844 Y94.358 E2.0452
G1 X104.074 Y94.446 E2.07475
G1 X104.267 Y94.37 E2.09964
G1 X105.027 Y94.157 E2.19435
G1 X105.805 Y94.021 E2.28913
G1 X106.523 Y93.967 E2.37553
G1 X108.272 Y93.916 E2.5855
G1 X109.061 Y93.933 E2.6802
G1 X110.008 Y94.06 E2.79486
G1 X110.642 Y94.185 E2.8724
G1 X111.408 Y94.377 E2.96717
G1 X111.847 Y94.535 E3.02316
G1 X112.267 Y94.37 E3.0773
G1 X113.027 Y94.157 E3.17202
G1 X113.787 Y94.024 E3.2646
G1 X114.189 Y93.974 E3.31322
G1 X114.977 Y93.916 E3.40803
G1 X115.766 Y93.938 E3.50275
G1 X116.811 Y94.093 E3.62952
G1 X117.082 Y94.152 E3.6628
G1 X117.844 Y94.358 E3.75753
G1 X118.074 Y94.446 E3.78708
G1 X118.267 Y94.37 E3.81197
G1 X119.027 Y94.157 E3.90668
G1 X119.805 Y94.021 E4.00146
G1 X120.523 Y93.967 E4.08786
G1 X122.272 Y93.916 E4.29783
G1 X123.061 Y93.933 E4.39253
G1 X124.008 Y94.06 E4.50719
G1 X124.642 Y94.185 E4.58473
G1 X125.408 Y94.377 E4.6795
G1 X125.847 Y94.535 E4.73549
G1 X126.267 Y94.37 E4.78964
G1 X127.027 Y94.157 E4.88435
G1 X127.787 Y94.024 E4.97694
G1 X128.189 Y93.974 E5.02555
G1 X128.977 Y93.916 E5.12036
G1 X129.766 Y93.938 E5.21508
G1 X130.811 Y94.093 E5.34185
G1 X131.082 Y94.152 E5.37513
G1 X131.844 Y94.358 E5.46986
G1 X132.582 Y94.641 E5.5647
G1 X133.287 Y94.997 E5.65948
G1 X133.952 Y95.423 E5.75425
G1 X134.851 Y96.172 E5.89466
G1 X135.175 Y96.486 E5.94881
G1 X135.714 Y97.063 E6.04356
G1 X136.191 Y97.692 E6.13829
G1 X136.603 Y98.367 E6.23318
G1 X136.944 Y99.079 E6.32792
G1 X137.211 Y99.822 E6.42266
G1 X137.435 Y100.772 E6.53978
G1 X138.345 Y106.091 E7.18734
G1 X138.439 Y106.875 E7.28209
G1 X138.457 Y107.422 E7.34777
G1 X138.431 Y119.752 E8.82737
G1 X138.389 Y120.541 E8.92218
G1 X138.268 Y121.321 E9.0169
G1 X138.069 Y122.085 E9.11164
G1 X137.856 Y122.676 E9.18703
G1 X137.611 Y123.278 E9.26502
G1 X137.276 Y123.994 E9.35988
G1 X136.871 Y124.672 E9.45465
G1 X136.4 Y125.305 E9.54933
G1 X135.943 Y125.811 E9.63115
G1 X135.488 Y126.273 E9.70896
G1 X134.906 Y126.807 E9.80375
G1 X134.274 Y127.279 E9.8984
G1 X133.596 Y127.685 E9.99323
G1 X132.939 Y127.997 E10.08051
G1 X132.336 Y128.249 E10.15894
G1 X131.593 Y128.516 E10.25368
G1 X130.826 Y128.707 E10.34853
G1 X130.045 Y128.819 E10.44321
G1 X129.391 Y128.852 E10.52179
G1 X127.525 Y128.867 E10.74572
G1 X126.736 Y128.833 E10.84048
G1 X125.954 Y128.72 E10.9353
G1 X125.562 Y128.622 E10.98379
G1 X124.826 Y128.773 E11.07395
G1 X123.744 Y128.862 E11.20423
G1 X123.451 Y128.866 E11.23939
G1 X124.345 Y134.091 E11.8755
G1 X124.439 Y134.875 E11.97025
G1 X124.457 Y135.422 E12.03593
G1 X124.431 Y147.752 E13.51553
G1 X124.389 Y148.541 E13.61035
G1 X124.268 Y149.321 E13.70507
G1 X124.069 Y150.085 E13.79981
G1 X123.856 Y150.676 E13.87519
G1 X123.611 Y151.278 E13.95318
G1 X123.276 Y151.994 E14.04804
G1 X122.871 Y152.672 E14.14281
G1 X122.4 Y153.305 E14.23749
G1 X121.943 Y153.811 E14.31931
G1 X121.488 Y154.273 E14.39713
G1 X120.906 Y154.807 E14.49191
G1 X120.274 Y155.279 E14.58657
G1 X119.596 Y155.685 E14.6814
G1 X118.939 Y155.997 E14.76868
G1 X118.336 Y156.249 E14.8471
G1 X117.593 Y156.516 E14.94184
G1 X116.826 Y156.707 E15.03669
G1 X116.045 Y156.819 E15.13137
G1 X115.391 Y156.852 E15.20995
G1 X113.525 Y156.867 E15.43388
G1 X112.736 Y156.833 E15.52865
G1 X111.954 Y156.72 E15.62346
G1 X111.565 Y156.622 E15.6716
G1 X111.56 Y156.624 E15.67225
G1 X110.785 Y156.779 E15.76709
G1 X109.744 Y156.862 E15.8924
G1 X108.101 Y156.883 E16.08958
G1 X107.312 Y156.853 E16.18433
G1 X106.483 Y156.735 E16.28481
G1 X105.843 Y156.608 E16.36311
G1 X105.077 Y156.415 E16.4579
G1 X104.335 Y156.146 E16.55261
G1 X103.623 Y155.803 E16.64745
G1 X102.988 Y155.416 E16.73669
G1 X102.446 Y155.049 E16.81523
G1 X101.815 Y154.573 E16.91008
G1 X101.236 Y154.037 E17.00476
G1 X100.714 Y153.444 E17.09957
G1 X100.307 Y152.883 E17.18274
G1 X99.949 Y152.34 E17.26078
G1 X99.548 Y151.66 E17.35552
G1 X99.218 Y150.942 E17.45034
G1 X98.963 Y150.195 E17.54506
G1 X98.798 Y149.505 E17.63019
G1 X98.677 Y148.869 E17.70788
G1 X98.569 Y148.087 E17.80261
G1 X98.54 Y147.411 E17.88381
G1 X98.54 Y130.367 E19.92909
G1 X98.58 Y129.578 E20.02389
G1 X98.694 Y128.831 E20.11457
G1 X98.087 Y128.749 E20.18807
G1 X97.559 Y128.622 E20.25324
G1 X96.826 Y128.773 E20.34304
G1 X95.744 Y128.862 E20.47332
G1 X94.101 Y128.883 E20.6705
G1 X93.312 Y128.853 E20.76525
G1 X92.483 Y128.735 E20.86573
G1 X91.843 Y128.608 E20.94403
G1 X91.077 Y128.415 E21.03882
G1 X90.335 Y128.146 E21.13353
G1 X89.623 Y127.803 E21.22837
G1 X88.988 Y127.416 E21.3176
G1 X88.446 Y127.049 E21.39615
G1 X87.815 Y126.573 E21.491
G1 X87.236 Y126.037 E21.58568
G1 X86.714 Y125.444 E21.68048
G1 X86.307 Y124.883 E21.76365
G1 X85.949 Y124.34 E21.8417
G1 X85.548 Y123.66 E21.93643
G1 X85.218 Y122.942 E22.03126
G1 X84.963 Y122.195 E22.12598
G1 X84.798 Y121.505 E22.21111
G1 X84.677 Y120.869 E22.2888
G1 X84.569 Y120.087 E22.38353
G1 X84.54 Y119.411 E22.46472
G1 X84.54 Y102.367 E24.51
G1 X84.58 Y101.578 E24.60481
G1 X84.699 Y100.798 E24.69949
G1 X84.897 Y100.033 E24.79431
G1 X85.056 Y99.577 E24.85227
G1 X85.218 Y99.154 E24.90662
G1 X85.537 Y98.432 E25.00134
G1 X85.928 Y97.746 E25.09609
G1 X86.386 Y97.103 E25.19083
G1 X86.907 Y96.509 E25.28564
G1 X87.485 Y95.971 E25.3804
G0 F3600 X87.82 Y96.214
G1 F1800 X88.155 Y95.955 E25.43121
G1 X88.403 Y95.775 E25.46798
G1 X89.048 Y95.356 E25.56028
G1 X89.733 Y95.007 E25.65253
G1 X90.451 Y94.73 E25.74488
G1 X91.194 Y94.529 E25.83725
G1 X91.953 Y94.407 E25.9295
G1 X92.534 Y94.367 E25.99938
G1 X94.283 Y94.316 E26.20935
G1 X95.052 Y94.334 E26.30166
G1 X95.93 Y94.453 E26.40798
G1 X96.564 Y94.578 E26.48552
G1 X97.31 Y94.766 E26.57784
G1 X97.848 Y94.963 E26.6466
G1 X98.451 Y94.73 E26.72417
G1 X99.194 Y94.529 E26.81653
G1 X99.837 Y94.421 E26.89478
G1 X100.239 Y94.371 E26.94339
G1 X101.006 Y94.315 E27.03567
G1 X101.775 Y94.34 E27.128
G1 X102.726 Y94.483 E27.2434
G1 X102.997 Y94.542 E27.27669
G1 X103.739 Y94.745 E27.369
G1 X104.075 Y94.875 E27.41223
G1 X104.451 Y94.73 E27.46059
G1 X105.194 Y94.529 E27.55295
G1 X105.953 Y94.407 E27.6452
G1 X106.534 Y94.367 E27.71509
G1 X108.283 Y94.316 E27.92506
G1 X109.052 Y94.334 E28.01736
G1 X109.93 Y94.453 E28.12369
G1 X110.564 Y94.578 E28.20123
G1 X111.31 Y94.766 E28.29355
G1 X111.848 Y94.963 E28.3623
G1 X112.451 Y94.73 E28.43988
G1 X113.194 Y94.529 E28.53224
G1 X113.837 Y94.421 E28.61048
G1 X114.239 Y94.371 E28.65909
G1 X115.006 Y94.315 E28.75138
G1 X115.775 Y94.34 E28.84371
G1 X116.726 Y94.483 E28.95911
G1 X116.997 Y94.542 E28.99239
G1 X117.739 Y94.745 E29.0847
G1 X118.075 Y94.875 E29.12794
G1 X118.451 Y94.73 E29.17629
G1 X119.194 Y94.529 E29.26866
G1 X119.953 Y94.407 E29.36091
G1 X120.534 Y94.367 E29.43079
G1 X122.283 Y94.316 E29.64076
G1 X123.052 Y94.334 E29.73307
G1 X123.93 Y94.453 E29.83939
G1 X124.564 Y94.578 E29.91694
G1 X125.31 Y94.766 E30.00926
G1 X125.848 Y94.963 E30.07801
G1 X126.451 Y94.73 E30.15558
G1 X127.194 Y94.529 E30.24795
G1 X127.837 Y94.421 E30.32619
G1 X128.239 Y94.371 E30.3748
G1 X129.006 Y94.315 E30.46708
G1 X129.775 Y94.34 E30.55941
G1 X130.726 Y94.483 E30.67482
G1 X130.997 Y94.542 E30.7081
G1 X131.739 Y94.745 E30.80041
G1 X132.456 Y95.023 E30.89269
G1 X133.14 Y95.375 E30.985
G1 X133.785 Y95.795 E31.07736
G1 X134.573 Y96.459 E31.20102
G1 X134.897 Y96.773 E31.25516
G1 X135.421 Y97.336 E31.34746
G1 X135.883 Y97.951 E31.43976
G1 X136.279 Y98.61 E31.53202
G1 X136.605 Y99.307 E31.62436
G1 X136.856 Y100.034 E31.71665
G1 X137.041 Y100.839 E31.81577
G1 X137.951 Y106.158 E32.46332
G1 X138.041 Y106.922 E32.55564
G1 X138.057 Y107.422 E32.61567
G1 X138.031 Y119.752 E34.09527
G1 X137.989 Y120.52 E34.18757
G1 X137.868 Y121.279 E34.2798
G1 X137.669 Y122.022 E34.3721
G1 X137.485 Y122.525 E34.43637
G1 X137.24 Y123.127 E34.51436
G1 X136.914 Y123.824 E34.6067
G1 X136.516 Y124.483 E34.69908
G1 X136.053 Y125.097 E34.79136
G1 X135.658 Y125.53 E34.8617
G1 X135.203 Y125.992 E34.93951
G1 X134.636 Y126.512 E35.03183
G1 X134.018 Y126.969 E35.12406
G1 X133.355 Y127.36 E35.21643
G1 X132.784 Y127.628 E35.29212
G1 X132.181 Y127.88 E35.37055
G1 X131.457 Y128.139 E35.46282
G1 X130.71 Y128.322 E35.55511
G1 X129.948 Y128.426 E35.6474
G1 X129.387 Y128.452 E35.71479
G1 X127.521 Y128.467 E35.93872
G1 X126.753 Y128.433 E36.03097
G1 X125.992 Y128.32 E36.12329
G1 X125.548 Y128.206 E36.1783
G1 X125.344 Y128.265 E36.20378
G1 X124.587 Y128.403 E36.29612
G1 X123.739 Y128.462 E36.39812
G1 X122.957 Y128.472 E36.49197
G1 X123.041 Y128.839 E36.53715
G1 X123.951 Y134.158 E37.1847
G1 X124.041 Y134.922 E37.27702
G1 X124.057 Y135.422 E37.33705
G1 X124.031 Y147.752 E38.81665
G1 X123.989 Y148.52 E38.90895
G1 X123.868 Y149.279 E39.00118
G1 X123.669 Y150.022 E39.09348
G1 X123.485 Y150.525 E39.15775
G1 X123.24 Y151.127 E39.23575
G1 X122.914 Y151.824 E39.32808
G1 X122.516 Y152.483 E39.42047
G1 X122.053 Y153.097 E39.51275
G1 X121.658 Y153.53 E39.58308
G1 X121.203 Y153.992 E39.66089
G1 X120.636 Y154.512 E39.75321
G1 X120.018 Y154.969 E39.84545
G1 X119.355 Y155.36 E39.93781
G1 X118.784 Y155.628 E40.0135
G1 X118.181 Y155.88 E40.09193
G1 X117.457 Y156.139 E40.1842
G1 X116.71 Y156.322 E40.27649
G1 X115.948 Y156.426 E40.36878
G1 X115.387 Y156.452 E40.43617
G1 X113.521 Y156.467 E40.6601
G1 X112.753 Y156.433 E40.75235
G1 X111.992 Y156.32 E40.84467
G1 X111.547 Y156.205 E40.89982
G1 X111.306 Y156.274 E40.9299
G1 X110.548 Y156.408 E41.02227
G1 X109.739 Y156.462 E41.11957
G1 X108.096 Y156.483 E41.31675
G1 X107.327 Y156.453 E41.4091
G1 X106.561 Y156.342 E41.50198
G1 X105.921 Y156.215 E41.58027
G1 X105.175 Y156.027 E41.67259
G1 X104.453 Y155.762 E41.76489
G1 X103.762 Y155.423 E41.85725
G1 X103.212 Y155.084 E41.93478
G1 X102.67 Y154.717 E42.01332
G1 X102.056 Y154.254 E42.1056
G1 X101.494 Y153.729 E42.19789
G1 X100.99 Y153.148 E42.29019
G1 X100.641 Y152.663 E42.36189
G1 X100.283 Y152.12 E42.43994
G1 X99.893 Y151.457 E42.53224
G1 X99.575 Y150.757 E42.6245
G1 X99.331 Y150.027 E42.71687
G1 X99.191 Y149.43 E42.79045
G1 X99.07 Y148.794 E42.86814
G1 X98.966 Y148.032 E42.96043
G1 X98.94 Y147.411 E43.03501
G1 X98.94 Y130.367 E45.08029
G1 X98.98 Y129.599 E45.17258
G1 X99.099 Y128.839 E45.26489
G1 X99.198 Y128.466 E45.3112
G1 X98.884 Y128.455 E45.3489
G1 X98.122 Y128.349 E45.44122
G1 X97.546 Y128.206 E45.51244
G1 X97.344 Y128.265 E45.53769
G1 X96.587 Y128.403 E45.63003
G1 X95.739 Y128.462 E45.73204
G1 X94.096 Y128.483 E45.92921
G1 X93.327 Y128.453 E46.02156
G1 X92.561 Y128.342 E46.11444
G1 X91.921 Y128.215 E46.19274
G1 X91.175 Y128.027 E46.28506
G1 X90.453 Y127.762 E46.37735
G1 X89.762 Y127.423 E46.46971
G1 X89.212 Y127.084 E46.54724
G1 X88.67 Y126.717 E46.62579
G1 X88.056 Y126.254 E46.71807
G1 X87.494 Y125.729 E46.81036
G1 X86.99 Y125.148 E46.90266
G1 X86.641 Y124.663 E46.97436
G1 X86.283 Y124.12 E47.0524
G1 X85.893 Y123.457 E47.14471
G1 X85.575 Y122.757 E47.23697
G1 X85.331 Y122.027 E47.32933
G1 X85.191 Y121.43 E47.40292
G1 X85.07 Y120.794 E47.48061
G1 X84.966 Y120.032 E47.57289
G1 X84.94 Y119.411 E47.64748
G1 X84.94 Y102.367 E49.69276
G1 X84.98 Y101.599 E49.78504
G1 X85.099 Y100.839 E49.87736
G1 X85.297 Y100.096 E49.96963
G1 X85.429 Y99.72 E50.01745
G1 X85.591 Y99.297 E50.0718
G1 X85.904 Y98.594 E50.16415
G1 X86.287 Y97.928 E50.25634
G1 X86.737 Y97.304 E50.34866
G1 X87.25 Y96.731 E50.44095
G1 X87.82 Y96.214 E50.53329
G0 F3600 X88.39 Y96.279
G1 F1800 X88.638 Y96.099 E50.57007
G1 X89.266 Y95.692 E50.65987
G1 X89.934 Y95.355 E50.74965
G1 X90.634 Y95.091 E50.83943
G1 X91.358 Y94.904 E50.92916
G1 X92.098 Y94.794 E51.01893
G1 X92.546 Y94.767 E51.07279
G1 X94.295 Y94.716 E51.28276
G1 X95.043 Y94.734 E51.37255
G1 X95.853 Y94.845 E51.47066
G1 X96.487 Y94.97 E51.5482
G1 X97.212 Y95.154 E51.63796
G1 X97.858 Y95.393 E51.72061
G1 X97.934 Y95.355 E51.73081
G1 X98.634 Y95.091 E51.82059
G1 X99.358 Y94.904 E51.91032
G1 X99.886 Y94.818 E51.97451
G1 X100.288 Y94.768 E52.02312
G1 X101.034 Y94.715 E52.11287
G1 X101.782 Y94.742 E52.20269
G1 X102.641 Y94.874 E52.30698
G1 X102.912 Y94.933 E52.34026
G1 X103.633 Y95.131 E52.42998
G1 X104.071 Y95.303 E52.48645
G1 X104.634 Y95.091 E52.55864
G1 X105.358 Y94.904 E52.64837
G1 X106.098 Y94.794 E52.73815
G1 X106.546 Y94.767 E52.79201
G1 X108.295 Y94.716 E53.00197
G1 X109.043 Y94.734 E53.09176
G1 X109.853 Y94.845 E53.18987
G1 X110.487 Y94.97 E53.26741
G1 X111.212 Y95.154 E53.35717
G1 X111.858 Y95.393 E53.43983
G1 X111.934 Y95.355 E53.45002
G1 X112.634 Y95.091 E53.5398
G1 X113.358 Y94.904 E53.62953
G1 X113.886 Y94.818 E53.69373
G1 X114.288 Y94.768 E53.74234
G1 X115.034 Y94.715 E53.83208
G1 X115.782 Y94.742 E53.9219
G1 X116.641 Y94.874 E54.02619
G1 X116.912 Y94.933 E54.05947
G1 X117.633 Y95.131 E54.1492
G1 X118.071 Y95.303 E54.20566
G1 X118.634 Y95.091 E54.27785
G1 X119.358 Y94.904 E54.36759
G1 X120.098 Y94.794 E54.45736
G1 X120.546 Y94.767 E54.51122
G1 X122.295 Y94.716 E54.72119
G1 X123.043 Y94.734 E54.81097
G1 X123.853 Y94.845 E54.90908
G1 X124.487 Y94.97 E54.98663
G1 X125.212 Y95.154 E55.07639
G1 X125.858 Y95.393 E55.15904
G1 X125.934 Y95.355 E55.16924
G1 X126.634 Y95.091 E55.25901
G1 X127.358 Y94.904 E55.34874
G1 X127.886 Y94.818 E55.41294
G1 X128.288 Y94.768 E55.46155
G1 X129.034 Y94.715 E55.5513
G1 X129.782 Y94.742 E55.64111
G1 X130.641 Y94.874 E55.7454
G1 X130.912 Y94.933 E55.77869
G1 X131.633 Y95.131 E55.86841
G1 X132.33 Y95.405 E55.95828
G1 X132.993 Y95.752 E56.04808
G1 X133.615 Y96.167 E56.13781
G1 X134.295 Y96.746 E56.24498
G1 X134.619 Y97.06 E56.29912
G1 X135.127 Y97.609 E56.38888
G1 X135.574 Y98.209 E56.47866
G1 X135.955 Y98.853 E56.56845
G1 X136.265 Y99.534 E56.65824
G1 X136.5 Y100.244 E56.74799
G1 X136.647 Y100.907 E56.82948
G1 X137.557 Y106.226 E57.47703
G1 X137.643 Y106.969 E57.56679
G1 X137.657 Y107.421 E57.62106
G1 X137.631 Y119.751 E59.10066
G1 X137.589 Y120.498 E59.19044
G1 X137.468 Y121.236 E59.28018
G1 X137.269 Y121.957 E59.36994
G1 X137.115 Y122.375 E59.42339
G1 X136.87 Y122.977 E59.50139
G1 X136.551 Y123.654 E59.59119
G1 X136.162 Y124.292 E59.68086
G1 X135.707 Y124.886 E59.77065
G1 X135.373 Y125.25 E59.82993
G1 X134.918 Y125.712 E59.90775
G1 X134.366 Y126.216 E59.99744
G1 X133.762 Y126.658 E60.08726
G1 X133.115 Y127.034 E60.17706
G1 X132.63 Y127.259 E60.24121
G1 X132.027 Y127.511 E60.31964
G1 X131.323 Y127.762 E60.40933
G1 X130.595 Y127.936 E60.49915
G1 X129.853 Y128.032 E60.58893
G1 X129.384 Y128.052 E60.64526
G1 X127.518 Y128.067 E60.86919
G1 X126.771 Y128.033 E60.95892
G1 X126.032 Y127.919 E61.04865
G1 X125.545 Y127.79 E61.10911
G1 X125.092 Y127.912 E61.1654
G1 X124.353 Y128.027 E61.25515
G1 X123.733 Y128.062 E61.32967
G1 X122.445 Y128.078 E61.48424
G1 X122.5 Y128.244 E61.50523
G1 X122.647 Y128.907 E61.58672
G1 X123.557 Y134.226 E62.23427
G1 X123.643 Y134.969 E62.32403
G1 X123.657 Y135.421 E62.37829
G1 X123.631 Y147.751 E63.8579
G1 X123.589 Y148.498 E63.94768
G1 X123.468 Y149.236 E64.03742
G1 X123.269 Y149.957 E64.12718
G1 X123.115 Y150.375 E64.18063
G1 X122.87 Y150.977 E64.25862
G1 X122.551 Y151.654 E64.34843
G1 X122.162 Y152.292 E64.4381
G1 X121.707 Y152.886 E64.52789
G1 X121.373 Y153.25 E64.58717
G1 X120.918 Y153.712 E64.66498
G1 X120.366 Y154.216 E64.75468
G1 X119.762 Y154.658 E64.84449
G1 X119.115 Y155.034 E64.93429
G1 X118.63 Y155.259 E64.99845
G1 X118.027 Y155.511 E65.07688
G1 X117.323 Y155.762 E65.16656
G1 X116.595 Y155.936 E65.25638
G1 X115.853 Y156.032 E65.34617
G1 X115.384 Y156.052 E65.4025
G1 X113.518 Y156.067 E65.62643
G1 X112.771 Y156.033 E65.71616
