;FLAVOR:UltiGCode
;TIME:1572
;MATERIAL:2734
;MATERIAL2:0
;NOZZLE_DIAMETER:0.4
;Generated with Cura_SteamEngine 4.0.0
M82 ;absolute extrusion mode

G92 E0
G10
;LAYER_COUNT:105
;LAYER:0
M107
;MESH:camera_cover_triforce.stl
G0 F3600 X101.724 Y106.493 Z0.3
;TYPE:WALL-INNER
G11
G1 F1800 X97.807 Y100.225 E0.88695
G1 X105.641 Y100.225 E1.82703
G1 X101.724 Y106.493 E2.71398
G10
G0 F3600 X101.724 Y106.392
G0 X101.724 Y106.472
G0 X102.824 Y108.234
G0 X106.724 Y114.392
G0 X106.724 Y114.493
G11
G1 F1800 X102.807 Y108.225 E3.60093
G1 X110.641 Y108.225 E4.54101
G1 X106.724 Y114.493 E5.42796
G10
G0 F3600 X106.724 Y114.392
G0 X110.624 Y108.234
G0 X111.724 Y106.472
G0 X111.724 Y106.392
G0 X111.724 Y106.493
G11
G1 F1800 X107.807 Y100.225 E6.31492
G1 X115.641 Y100.225 E7.255
G1 X111.724 Y106.493 E8.14195
G0 F3600 X111.724 Y107.247
;TYPE:WALL-OUTER
G1 F1800 X107.085 Y99.825 E9.19225
G1 X116.363 Y99.825 E10.30561
G1 X111.724 Y107.247 E11.35591
G0 F3600 X111.618 Y107.078
G10
G0 X111.573 Y107.681
G0 X111.595 Y107.843
G0 X110.624 Y108.234
G0 X106.724 Y114.392
G0 X106.724 Y115.247
G11
G1 F1800 X102.085 Y107.825 E12.40621
G1 X111.363 Y107.825 E13.51957
G1 X106.724 Y115.247 E14.56987
G0 F3600 X106.618 Y115.078
G10
G0 X106.724 Y114.392
G0 X102.824 Y108.234
G0 X101.916 Y107.709
G0 X101.847 Y107.635
G0 X101.724 Y107.247
G11
G1 F1800 X97.085 Y99.825 E15.62017
G1 X106.363 Y99.825 E16.73353
G1 X101.724 Y107.247 E17.78383
G0 F3600 X101.618 Y107.078
G10
G0 X101.853 Y107.645
G0 X101.724 Y107.63
G0 X101.724 Y106.472
G0 X101.724 Y105.756
;TYPE:SKIN
G11
G1 F1800 X98.511 Y100.615 E18.51133
G1 X104.937 Y100.615 E19.28245
G1 X101.724 Y105.756 E20.00994
G0 F3600 X101.838 Y105.233
G1 F1800 X101.229 Y104.623 E20.11338
G1 X101.159 Y104.553
G0 F3600 X102.056 Y104.885
G1 F1800 X100.286 Y103.115 E20.41375
G1 X100.216 Y103.045
G0 F3600 X99.343 Y101.606
G1 F1800 X102.273 Y104.536 E20.91099
G0 F3600 X102.491 Y104.188
G1 F1800 X99.097 Y100.794 E21.48697
G0 F3600 X99.663 Y100.794
G1 F1800 X102.709 Y103.84 E22.0039
G0 F3600 X102.926 Y103.492
G1 F1800 X100.228 Y100.794 E22.46176
G0 F3600 X100.794 Y100.794
G1 F1800 X103.144 Y103.144 E22.86057
G0 F3600 X103.362 Y102.796
G1 F1800 X101.36 Y100.794 E23.20032
G0 F3600 X101.925 Y100.794
G1 F1800 X103.579 Y102.447 E23.48093
G0 F3600 X103.796 Y102.099
G1 F1800 X102.491 Y100.794 E23.70239
G0 F3600 X103.057 Y100.794
G1 F1800 X104.013 Y101.751 E23.86472
G0 F3600 X104.231 Y101.403
G1 F1800 X103.622 Y100.794 E23.96807
G0 F3600 X104.188 Y100.794
G1 F1800 X104.449 Y101.055 E24.01236
G10
G0 F3600 X101.724 Y106.472
G0 X102.824 Y108.234
G0 X103.511 Y108.615
G11
G1 F1800 X109.937 Y108.615 E24.78348
G1 X106.724 Y113.756 E25.51098
G1 X103.511 Y108.615 E26.23847
G0 F3600 X106.904 Y113.127
G1 F1800 X105.942 Y112.165 E26.40173
G1 X105.872 Y112.095
G0 F3600 X107.122 Y112.779
G1 F1800 X104.999 Y110.656 E26.76201
G1 X104.929 Y110.586
G0 F3600 X104.055 Y109.146
G1 F1800 X107.339 Y112.43 E27.31932
G0 F3600 X107.557 Y112.082
G1 F1800 X104.269 Y108.794 E27.87732
G0 F3600 X104.834 Y108.794
G1 F1800 X107.775 Y111.734 E28.37634
G0 F3600 X107.992 Y111.386
G1 F1800 X105.4 Y108.794 E28.81621
G0 F3600 X105.966 Y108.794
G1 F1800 X108.209 Y111.038 E29.19695
G0 F3600 X108.427 Y110.69
G1 F1800 X106.532 Y108.794 E29.51862
G0 F3600 X107.098 Y108.795
G1 F1800 X108.644 Y110.341 E29.78099
G0 F3600 X108.862 Y109.993
G1 F1800 X107.664 Y108.795 E29.9843
G0 F3600 X108.229 Y108.795
G1 F1800 X109.08 Y109.646 E30.12872
G0 F3600 X109.297 Y109.297
G1 F1800 X108.795 Y108.795 E30.21391
G0 F3600 X109.361 Y108.795
G1 F1800 X109.515 Y108.949 E30.24004
G10
G0 F3600 X110.624 Y108.234
G0 X111.724 Y106.472
G0 X111.724 Y105.756
G11
G1 F1800 X108.511 Y100.615 E30.96754
G1 X114.937 Y100.615 E31.73866
G1 X111.724 Y105.756 E32.46615
G0 F3600 X111.908 Y105.12
G1 F1800 X110.921 Y104.133 E32.63365
G1 X110.851 Y104.063
G0 F3600 X112.126 Y104.772
G1 F1800 X109.979 Y102.625 E32.99801
G1 X109.909 Y102.555
G0 F3600 X109.036 Y101.116
G1 F1800 X112.343 Y104.424 E33.55931
G0 F3600 X112.561 Y104.076
G1 F1800 X109.28 Y100.795 E34.11611
G0 F3600 X109.846 Y100.795
G1 F1800 X112.779 Y103.728 E34.61386
G0 F3600 X112.996 Y103.379
G1 F1800 X110.411 Y100.795 E35.05246
G0 F3600 X110.977 Y100.795
G1 F1800 X113.214 Y103.031 E35.43201
G0 F3600 X113.431 Y102.683
G1 F1800 X111.543 Y100.795 E35.75241
G0 F3600 X112.108 Y100.795
G1 F1800 X113.649 Y102.335 E36.01385
G0 F3600 X113.866 Y101.987
G1 F1800 X112.674 Y100.795 E36.21614
G0 F3600 X113.24 Y100.795
G1 F1800 X114.084 Y101.639 E36.35937
G0 F3600 X114.302 Y101.291
G1 F1800 X113.806 Y100.795 E36.44354
G0 F3600 X114.371 Y100.795
G1 F1800 X114.519 Y100.943 E36.46866
G10
;MESH:NONMESH
G0 F3600 X108.887 Y101.917
G0 X107.799 Y102.598
G0 X106.705 Y100.908
G0 X105.624 Y100.234
G0 X101.724 Y106.392
G0 X101.724 Y106.493
;TIME_ELAPSED:19.881826
;LAYER:1
M106 S255
;MESH:camera_cover_triforce.stl
G0 F5400 X101.724 Y106.493 Z0.45
;TYPE:WALL-INNER
G11
G1 F2700 X97.807 Y100.225 E36.91213
G1 X105.641 Y100.225 E37.38217
G1 X101.724 Y106.493 E37.82565
G10
G0 F5400 X101.724 Y106.392
G0 X101.724 Y106.472
G0 X102.824 Y108.234
G0 X106.724 Y114.392
G0 X106.724 Y114.493
G11
G1 F2700 X102.807 Y108.225 E38.26912
G1 X110.641 Y108.225 E38.73916
G1 X106.724 Y114.493 E39.18264
G10
G0 F5400 X106.724 Y114.392
G0 X110.624 Y108.234
G0 X111.724 Y106.472
G0 X111.724 Y106.392
G0 X111.724 Y106.493
G11
G1 F2700 X107.807 Y100.225 E39.62612
G1 X115.641 Y100.225 E40.09616
G1 X111.724 Y106.493 E40.53963
G0 F5400 X111.724 Y107.247
;TYPE:WALL-OUTER
G1 F1800 X107.085 Y99.825 E41.06478
G1 X116.363 Y99.825 E41.62146
G1 X111.724 Y107.247 E42.14661
G0 F5400 X111.618 Y107.078
G10
G0 X111.573 Y107.681
G0 X111.595 Y107.843
G0 X110.624 Y108.234
G0 X106.724 Y114.392
G0 X106.724 Y115.247
G11
G1 F1800 X102.085 Y107.825 E42.67176
G1 X111.363 Y107.825 E43.22844
G1 X106.724 Y115.247 E43.75359
G0 F5400 X106.618 Y115.078
G10
G0 X106.724 Y114.392
G0 X102.824 Y108.234
G0 X101.916 Y107.709
G0 X101.847 Y107.635
G0 X101.724 Y107.247
G11
G1 F1800 X97.085 Y99.825 E44.27874
G1 X106.363 Y99.825 E44.83542
G1 X101.724 Y107.247 E45.36057
G0 F5400 X101.618 Y107.078
G10
G0 X101.853 Y107.645
G0 X101.724 Y107.63
G0 X101.724 Y106.472
G0 X101.724 Y105.756
;TYPE:SKIN
G11
G1 F1800 X98.511 Y100.615 E45.72432
G1 X104.937 Y100.615 E46.10988
G1 X101.724 Y105.756 E46.47363
G0 F5400 X101.686 Y105.353
G1 F1800 X101.889 Y105.151 E46.49081
G0 F5400 X101.469 Y105.006
G1 F1800 X102.831 Y103.644 E46.60638
G1 X102.901 Y103.574
G0 F5400 X103.773 Y102.135
G1 F1800 X101.251 Y104.658 E46.82042
G0 F5400 X101.034 Y104.309
G1 F1800 X104.549 Y100.794 E47.11868
G0 F5400 X103.983 Y100.794
G1 F1800 X100.816 Y103.961 E47.38741
G0 F5400 X100.598 Y103.613
G1 F1800 X103.417 Y100.794 E47.62661
G0 F5400 X102.852 Y100.794
G1 F1800 X100.381 Y103.265 E47.83628
G0 F5400 X100.163 Y102.917
G1 F1800 X102.286 Y100.794 E48.01642
G0 F5400 X101.72 Y100.794
G1 F1800 X99.946 Y102.569 E48.16699
G0 F5400 X99.728 Y102.22
G1 F1800 X101.155 Y100.794 E48.28804
G0 F5400 X100.589 Y100.794
G1 F1800 X99.511 Y101.872 E48.37951
G0 F5400 X99.293 Y101.524
G1 F1800 X100.023 Y100.794 E48.44145
G0 F5400 X99.458 Y100.794
G1 F1800 X99.075 Y101.177 E48.47395
G10
G0 F5400 X101.724 Y106.472
G0 X102.824 Y108.234
G0 X103.511 Y108.615
G11
G1 F1800 X109.937 Y108.615 E48.85951
G1 X106.724 Y113.756 E49.22325
G1 X103.511 Y108.615 E49.587
G0 F5400 X104.079 Y109.183
G1 F1800 X104.469 Y108.794 E49.62005
G0 F5400 X105.035 Y108.794
G1 F1800 X104.296 Y109.532 E49.68272
G0 F5400 X104.514 Y109.88
G1 F1800 X105.6 Y108.794 E49.77487
G0 F5400 X106.166 Y108.794
G1 F1800 X104.732 Y110.228 E49.89654
G0 F5400 X104.95 Y110.575
G1 F1800 X106.731 Y108.794 E50.04767
G0 F5400 X107.297 Y108.794
G1 F1800 X105.167 Y110.923 E50.22836
G0 F5400 X105.385 Y111.272
G1 F1800 X107.862 Y108.794 E50.43858
G0 F5400 X108.428 Y108.794
G1 F1800 X105.602 Y111.62 E50.67838
G0 F5400 X105.82 Y111.968
G1 F1800 X108.994 Y108.794 E50.9477
G0 F5400 X109.559 Y108.794
G1 F1800 X106.038 Y112.316 E51.24651
G0 F5400 X106.255 Y112.664
G1 F1800 X108.754 Y110.165 E51.45856
G1 X108.824 Y110.095
G0 F5400 X107.811 Y111.674
G1 F1800 X106.473 Y113.012 E51.57209
G0 F5400 X106.691 Y113.36
G1 F1800 X106.869 Y113.181 E51.58724
G10
G0 F5400 X110.624 Y108.234
G0 X111.724 Y106.472
G0 X111.724 Y105.756
G11
G1 F1800 X108.511 Y100.615 E51.95098
G1 X114.937 Y100.615 E52.33654
G1 X111.724 Y105.756 E52.70029
G0 F5400 X111.538 Y105.119
G1 F1800 X112.526 Y104.13 E52.78417
G1 X112.596 Y104.06
G0 F5400 X111.321 Y104.77
G1 F1800 X113.469 Y102.622 E52.96643
G1 X113.539 Y102.552
G0 F5400 X114.411 Y101.114
G1 F1800 X111.103 Y104.422 E53.24712
G0 F5400 X110.885 Y104.074
G1 F1800 X114.165 Y100.794 E53.52544
G0 F5400 X113.6 Y100.794
G1 F1800 X110.667 Y103.726 E53.77427
G0 F5400 X110.45 Y103.378
G1 F1800 X113.034 Y100.794 E53.99353
G0 F5400 X112.468 Y100.794
G1 F1800 X110.232 Y103.03 E54.18326
G0 F5400 X110.015 Y102.682
G1 F1800 X111.903 Y100.794 E54.34346
G0 F5400 X111.337 Y100.794
G1 F1800 X109.798 Y102.333 E54.47405
G0 F5400 X109.58 Y101.986
G1 F1800 X110.771 Y100.794 E54.57516
G0 F5400 X110.206 Y100.794
G1 F1800 X109.362 Y101.638 E54.64677
G0 F5400 X109.145 Y101.289
G1 F1800 X109.64 Y100.794 E54.68877
G0 F5400 X109.074 Y100.794
G1 F1800 X108.927 Y100.941 E54.70125
G10
;MESH:NONMESH
G0 F5400 X108.887 Y101.917
G0 X107.799 Y102.598
G0 X106.705 Y100.908
G0 X105.624 Y100.234
G0 X101.724 Y106.392
G0 X101.724 Y106.493
;TIME_ELAPSED:34.759795
;LAYER:2
;MESH:camera_cover_triforce.stl
G0 F7200 X101.724 Y106.493 Z0.6
;TYPE:WALL-INNER
G11
G1 F3600 X97.807 Y100.225 E55.14472
G1 X105.641 Y100.225 E55.61476
G1 X101.724 Y106.493 E56.05824
G10
G0 F7200 X101.724 Y106.392
G0 X101.724 Y106.472
G0 X102.824 Y108.234
G0 X106.724 Y114.392
G0 X106.724 Y114.493
G11
G1 F3600 X102.807 Y108.225 E56.50171
G1 X110.641 Y108.225 E56.97175
G1 X106.724 Y114.493 E57.41523
G10
G0 F7200 X106.724 Y114.392
G0 X110.624 Y108.234
G0 X111.724 Y106.472
G0 X111.724 Y106.392
G0 X111.724 Y106.493
G11
G1 F3600 X107.807 Y100.225 E57.8587
G1 X115.641 Y100.225 E58.32874
G1 X111.724 Y106.493 E58.77222
G0 F7200 X111.724 Y107.247
;TYPE:WALL-OUTER
G1 F1800 X107.085 Y99.825 E59.29737
G1 X116.363 Y99.825 E59.85405
G1 X111.724 Y107.247 E60.3792
G0 F7200 X111.618 Y107.078
G10
G0 X111.573 Y107.681
G0 X111.595 Y107.843
G0 X110.624 Y108.234
G0 X106.724 Y114.392
G0 X106.724 Y115.247
G11
G1 F1800 X102.085 Y107.825 E60.90435
G1 X111.363 Y107.825 E61.46103
G1 X106.724 Y115.247 E61.98618
G0 F7200 X106.618 Y115.078
G10
G0 X106.724 Y114.392
G0 X102.824 Y108.234
G0 X101.916 Y107.709
G0 X101.847 Y107.635
G0 X101.724 Y107.247
G11
G1 F1800 X97.085 Y99.825 E62.51133
G1 X106.363 Y99.825 E63.06801
G1 X101.724 Y107.247 E63.59316
G0 F7200 X101.618 Y107.078
G10
G0 X101.853 Y107.645
G0 X101.724 Y107.63
G0 X101.724 Y106.472
G0 X101.724 Y105.756
;TYPE:SKIN
G11
G1 F1800 X98.511 Y100.615 E63.95691
G1 X104.937 Y100.615 E64.34247
G1 X101.724 Y105.756 E64.70622
G0 F7200 X101.838 Y105.233
G1 F1800 X101.229 Y104.623 E64.75793
G1 X101.159 Y104.553
G0 F7200 X102.056 Y104.885
G1 F1800 X100.286 Y103.115 E64.90812
G1 X100.216 Y103.045
G0 F7200 X99.343 Y101.606
G1 F1800 X102.273 Y104.536 E65.15674
G0 F7200 X102.491 Y104.188
G1 F1800 X99.097 Y100.794 E65.44473
G0 F7200 X99.663 Y100.794
G1 F1800 X102.709 Y103.84 E65.70319
G0 F7200 X102.926 Y103.492
G1 F1800 X100.228 Y100.794 E65.93213
G0 F7200 X100.794 Y100.794
G1 F1800 X103.144 Y103.144 E66.13153
G0 F7200 X103.362 Y102.796
G1 F1800 X101.36 Y100.794 E66.30141
G0 F7200 X101.925 Y100.794
G1 F1800 X103.579 Y102.447 E66.44171
G0 F7200 X103.796 Y102.099
G1 F1800 X102.491 Y100.794 E66.55244
G0 F7200 X103.057 Y100.794
G1 F1800 X104.013 Y101.751 E66.63361
G0 F7200 X104.231 Y101.403
G1 F1800 X103.622 Y100.794 E66.68528
G0 F7200 X104.188 Y100.794
G1 F1800 X104.449 Y101.055 E66.70743
G10
G0 F7200 X101.724 Y106.472
G0 X102.824 Y108.234
G0 X103.511 Y108.615
G11
G1 F1800 X109.937 Y108.615 E67.09299
G1 X106.724 Y113.756 E67.45673
G1 X103.511 Y108.615 E67.82048
G0 F7200 X106.904 Y113.127
G1 F1800 X105.942 Y112.165 E67.90211
G1 X105.872 Y112.095
G0 F7200 X107.122 Y112.779
G1 F1800 X104.999 Y110.656 E68.08225
G1 X104.929 Y110.586
G0 F7200 X104.055 Y109.146
G1 F1800 X107.339 Y112.43 E68.36091
G0 F7200 X107.557 Y112.082
G1 F1800 X104.269 Y108.794 E68.6399
G0 F7200 X104.834 Y108.794
G1 F1800 X107.775 Y111.734 E68.88941
G0 F7200 X107.992 Y111.386
G1 F1800 X105.4 Y108.794 E69.10935
G0 F7200 X105.966 Y108.794
G1 F1800 X108.209 Y111.038 E69.29972
G0 F7200 X108.427 Y110.69
G1 F1800 X106.532 Y108.794 E69.46056
G0 F7200 X107.098 Y108.795
G1 F1800 X108.644 Y110.341 E69.59174
G0 F7200 X108.862 Y109.993
G1 F1800 X107.664 Y108.795 E69.6934
G0 F7200 X108.229 Y108.795
G1 F1800 X109.08 Y109.646 E69.7656
G0 F7200 X109.297 Y109.297
G1 F1800 X108.795 Y108.795 E69.8082
G0 F7200 X109.361 Y108.795
G1 F1800 X109.515 Y108.949 E69.82127
G10
G0 F7200 X110.624 Y108.234
G0 X111.724 Y106.472
G0 X111.724 Y105.756
G11
G1 F1800 X108.511 Y100.615 E70.18502
G1 X114.937 Y100.615 E70.57058
G1 X111.724 Y105.756 E70.93432
G0 F7200 X111.908 Y105.12
G1 F1800 X110.921 Y104.133 E71.01807
G1 X110.851 Y104.063
G0 F7200 X112.126 Y104.772
G1 F1800 X109.979 Y102.625 E71.20025
G1 X109.909 Y102.555
G0 F7200 X109.036 Y101.116
G1 F1800 X112.343 Y104.424 E71.4809
G0 F7200 X112.561 Y104.076
G1 F1800 X109.28 Y100.795 E71.7593
G0 F7200 X109.846 Y100.795
G1 F1800 X112.779 Y103.728 E72.00818
G0 F7200 X112.996 Y103.379
G1 F1800 X110.411 Y100.795 E72.22748
G0 F7200 X110.977 Y100.795
G1 F1800 X113.214 Y103.031 E72.41725
G0 F7200 X113.431 Y102.683
G1 F1800 X111.543 Y100.795 E72.57745
G0 F7200 X112.108 Y100.795
G1 F1800 X113.649 Y102.335 E72.70817
G0 F7200 X113.866 Y101.987
G1 F1800 X112.674 Y100.795 E72.80931
G0 F7200 X113.24 Y100.795
G1 F1800 X114.084 Y101.639 E72.88093
G0 F7200 X114.302 Y101.291
G1 F1800 X113.806 Y100.795 E72.92302
G0 F7200 X114.371 Y100.795
G1 F1800 X114.519 Y100.943 E72.93558
G10
;MESH:NONMESH
G0 F7200 X108.887 Y101.917
G0 X107.799 Y102.598
G0 X106.705 Y100.908
G0 X105.624 Y100.234
G0 X101.724 Y106.392
G0 X101.724 Y106.493
;TIME_ELAPSED:49.372015
;LAYER:3
;MESH:camera_cover_triforce.stl
G0 X101.724 Y106.493 Z0.75
;TYPE:WALL-INNER
G11
G1 F3600 X97.807 Y100.225 E73.37905
G1 X105.641 Y100.225 E73.84909
G1 X101.724 Y106.493 E74.29257
G10
G0 F7200 X101.724 Y106.392
G0 X101.724 Y106.472
G0 X102.824 Y108.234
G0 X106.724 Y114.392
G0 X106.724 Y114.493
G11
G1 F3600 X102.807 Y108.225 E74.73604
G1 X110.641 Y108.225 E75.20608
G1 X106.724 Y114.493 E75.64956
G10
G0 F7200 X106.724 Y114.392
G0 X110.624 Y108.234
G0 X111.724 Y106.472
G0 X111.724 Y106.392
G0 X111.724 Y106.493
G11
G1 F3600 X107.807 Y100.225 E76.09303
G1 X115.641 Y100.225 E76.56307
G1 X111.724 Y106.493 E77.00655
G0 F7200 X111.724 Y107.247
;TYPE:WALL-OUTER
G1 F1800 X107.085 Y99.825 E77.5317
G1 X116.363 Y99.825 E78.08838
G1 X111.724 Y107.247 E78.61353
G0 F7200 X111.618 Y107.078
G10
G0 X111.573 Y107.681
G0 X111.595 Y107.843
G0 X110.624 Y108.234
G0 X106.724 Y114.392
G0 X106.724 Y115.247
G11
G1 F1800 X102.085 Y107.825 E79.13868
G1 X111.363 Y107.825 E79.69536
G1 X106.724 Y115.247 E80.22051
G0 F7200 X106.618 Y115.078
G10
G0 X106.724 Y114.392
G0 X102.824 Y108.234
G0 X101.916 Y107.709
G0 X101.847 Y107.635
G0 X101.724 Y107.247
G11
G1 F1800 X97.085 Y99.825 E80.74566
G1 X106.363 Y99.825 E81.30234
G1 X101.724 Y107.247 E81.82749
G0 F7200 X101.618 Y107.078
G10
G0 X101.853 Y107.645
G0 X101.724 Y107.63
G0 X101.724 Y106.472
G0 X101.724 Y105.756
;TYPE:SKIN
G11
G1 F1800 X98.511 Y100.615 E82.19124
G1 X104.937 Y100.615 E82.5768
G1 X101.724 Y105.756 E82.94055
G0 F7200 X101.686 Y105.353
G1 F1800 X101.889 Y105.151 E82.95773
G0 F7200 X101.469 Y105.006
G1 F1800 X102.831 Y103.644 E83.0733
G1 X102.901 Y103.574
G0 F7200 X103.773 Y102.135
G1 F1800 X101.251 Y104.658 E83.28734
G0 F7200 X101.034 Y104.309
G1 F1800 X104.549 Y100.794 E83.5856
G0 F7200 X103.983 Y100.794
G1 F1800 X100.816 Y103.961 E83.85433
G0 F7200 X100.598 Y103.613
G1 F1800 X103.417 Y100.794 E84.09353
G0 F7200 X102.852 Y100.794
G1 F1800 X100.381 Y103.265 E84.3032
G0 F7200 X100.163 Y102.917
G1 F1800 X102.286 Y100.794 E84.48334
G0 F7200 X101.72 Y100.794
G1 F1800 X99.946 Y102.569 E84.63391
