;FLAVOR:UltiGCode
;TIME:1012
;MATERIAL:712
;MATERIAL2:0
;NOZZLE_DIAMETER:0.4
;Generated with Cura_SteamEngine 4.0.0
M82 ;absolute extrusion mode

G92 E0
G10
;LAYER_COUNT:18
;LAYER:0
M107
G0 F3600 X103.14 Y93.692 Z0.3
;TYPE:SKIRT
G11
G1 F1200 X103.626 Y93.203 E0.08273
G1 X104.972 Y91.963 E0.30235
G1 X105.54 Y91.488 E0.3912
G1 X106.338 Y90.882 E0.51144
G1 X106.99 Y90.437 E0.60617
G1 X107.684 Y90.06 E0.70094
G1 X108.412 Y89.755 E0.79566
G1 X109.168 Y89.526 E0.89045
G1 X109.554 Y89.44 E0.9379
G1 X110.125 Y89.328 E1.00773
G1 X110.906 Y89.215 E1.10243
G1 X111.695 Y89.182 E1.19719
G1 X112.267 Y89.208 E1.2659
G1 X113.031 Y89.271 E1.35789
G1 X113.814 Y89.376 E1.45269
G1 X114.582 Y89.559 E1.54743
G1 X115.328 Y89.819 E1.64223
G1 X116.043 Y90.153 E1.73693
G1 X116.719 Y90.557 E1.83144
G1 X117.293 Y90.94 E1.91424
G1 X117.927 Y91.411 E2.00902
G1 X118.542 Y91.976 E2.10923
G1 X120.497 Y93.976 E2.44485
G1 X120.915 Y94.44 E2.51979
G1 X122.929 Y96.861 E2.89769
G1 X123.268 Y97.298 E2.96406
G1 X124.888 Y99.553 E3.29725
G1 X125.291 Y100.175 E3.38619
G1 X126.85 Y102.849 E3.75762
G1 X127.043 Y103.2 E3.80569
G1 X128.058 Y105.166 E4.0712
G1 X128.302 Y105.685 E4.14002
G1 X129.608 Y108.748 E4.53959
G1 X129.83 Y109.333 E4.61468
G1 X130.808 Y112.257 E4.98467
G1 X131.02 Y113.017 E5.07935
G1 X131.159 Y113.831 E5.17844
G1 X131.377 Y115.708 E5.4052
G1 X131.428 Y116.496 E5.49995
G1 X131.41 Y117.146 E5.57798
G1 X131.338 Y118.187 E5.7032
G1 X131.244 Y118.971 E5.79796
G1 X131.033 Y119.875 E5.90935
G1 X130.676 Y121.074 E6.05947
G1 X130.412 Y121.818 E6.15421
G1 X129.948 Y122.76 E6.28022
G1 X129.202 Y124.047 E6.45873
G1 X128.549 Y125.002 E6.59755
G1 X127.439 Y126.392 E6.81101
G1 X126.717 Y127.18 E6.93926
G1 X125.054 Y128.76 E7.21453
G1 X124.29 Y129.397 E7.3339
G1 X122.903 Y130.413 E7.54021
G1 X122.243 Y130.847 E7.635
G1 X121.829 Y131.074 E7.69166
G1 X120.12 Y131.943 E7.92173
G1 X119.458 Y132.242 E8.0089
G1 X118.481 Y132.629 E8.135
G1 X117.637 Y132.908 E8.24167
G1 X115.878 Y133.382 E8.46028
G1 X115.107 Y133.549 E8.55495
G1 X114.408 Y133.631 E8.6394
G1 X112.069 Y133.799 E8.9208
G1 X111.309 Y133.816 E9.01203
G1 X109.561 Y133.771 E9.22186
G1 X108.551 Y133.679 E9.34356
G1 X106.948 Y133.427 E9.53828
G1 X106.175 Y133.265 E9.63306
G1 X105.615 Y133.096 E9.70325
G1 X104.18 Y132.601 E9.88541
G1 X103.138 Y132.154 E10.02147
G1 X101.295 Y131.2 E10.2705
G1 X100.487 Y130.717 E10.38346
G1 X99.11 Y129.778 E10.58346
G1 X98.361 Y129.199 E10.69707
G1 X97.419 Y128.373 E10.84741
G1 X96.793 Y127.758 E10.95272
G1 X95.447 Y126.279 E11.19269
G1 X94.791 Y125.451 E11.31946
G1 X93.588 Y123.703 E11.57409
G1 X93.173 Y123.031 E11.66887
G1 X92.829 Y122.32 E11.76365
G1 X92.685 Y121.952 E11.81107
G1 X92.17 Y120.539 E11.99154
G1 X91.937 Y119.784 E12.08636
G1 X91.787 Y119.044 E12.17697
G1 X91.665 Y118.244 E12.27408
G1 X91.586 Y117.458 E12.36887
G1 X91.589 Y116.613 E12.47027
G1 X91.679 Y115.073 E12.65539
G1 X91.765 Y114.288 E12.75015
G1 X91.937 Y113.488 E12.84834
G1 X92.561 Y111.185 E13.13467
G1 X92.856 Y110.309 E13.24559
G1 X93.892 Y107.739 E13.5781
G1 X94.054 Y107.365 E13.62701
G1 X95.165 Y104.977 E13.94307
G1 X95.476 Y104.377 E14.02417
G1 X96.914 Y101.878 E14.37015
G1 X97.125 Y101.533 E14.41868
G1 X98.495 Y99.414 E14.72148
G1 X98.811 Y98.961 E14.78775
G1 X100.8 Y96.316 E15.18488
G1 X101.263 Y95.756 E15.27208
G1 X103.14 Y93.692 E15.60686
G0 F3600 X103.436 Y93.961
G1 F1200 X103.897 Y93.497 E15.68535
G1 X105.243 Y92.257 E15.90496
G1 X105.782 Y91.807 E15.98922
G1 X106.58 Y91.201 E16.10946
G1 X107.216 Y90.768 E16.20179
G1 X107.893 Y90.404 E16.29403
G1 X108.604 Y90.112 E16.38626
G1 X109.631 Y89.832 E16.514
G1 X110.202 Y89.72 E16.58383
G1 X110.963 Y89.612 E16.67606
G1 X111.732 Y89.583 E16.76841
G1 X112.234 Y89.607 E16.82872
G1 X112.998 Y89.67 E16.92071
G1 X113.76 Y89.773 E17.01298
G1 X114.508 Y89.955 E17.10536
G1 X115.232 Y90.213 E17.19759
G1 X115.926 Y90.545 E17.28991
G1 X116.497 Y90.889 E17.3699
G1 X117.071 Y91.272 E17.45271
G1 X117.688 Y91.732 E17.54506
G1 X118.256 Y92.255 E17.63771
G1 X120.211 Y94.255 E17.97333
G1 X120.608 Y94.695 E18.04444
G1 X122.622 Y97.116 E18.42235
G1 X122.943 Y97.531 E18.48531
G1 X124.563 Y99.786 E18.8185
G1 X124.946 Y100.377 E18.90301
G1 X126.505 Y103.051 E19.27444
G1 X126.687 Y103.383 E19.31987
G1 X127.702 Y105.349 E19.58538
G1 X127.934 Y105.842 E19.65076
G1 X129.24 Y108.905 E20.05034
G1 X129.451 Y109.46 E20.12159
G1 X130.429 Y112.384 E20.49158
G1 X130.635 Y113.125 E20.58387
G1 X130.762 Y113.877 E20.67539
G1 X130.98 Y115.754 E20.90214
G1 X131.028 Y116.522 E20.99448
G1 X131.011 Y117.119 E21.06615
G1 X130.939 Y118.16 E21.19137
G1 X130.846 Y118.923 E21.28361
G1 X130.649 Y119.761 E21.38691
G1 X130.292 Y120.96 E21.53703
G1 X130.035 Y121.684 E21.62922
G1 X129.602 Y122.559 E21.74637
G1 X128.856 Y123.846 E21.92488
G1 X128.236 Y124.753 E22.05672
G1 X127.126 Y126.143 E22.27018
G1 X126.441 Y126.89 E22.3918
G1 X124.778 Y128.47 E22.66707
G1 X124.054 Y129.075 E22.78029
G1 X122.667 Y130.091 E22.98661
G1 X122.024 Y130.512 E23.07884
G1 X121.648 Y130.717 E23.13023
G1 X119.939 Y131.586 E23.3603
G1 X119.31 Y131.87 E23.44311
G1 X118.333 Y132.257 E23.56922
G1 X117.533 Y132.522 E23.67035
G1 X115.774 Y132.996 E23.88896
G1 X115.022 Y133.157 E23.98124
G1 X114.379 Y133.232 E24.05892
G1 X112.04 Y133.4 E24.34033
G1 X111.32 Y133.417 E24.42675
G1 X109.572 Y133.372 E24.63658
G1 X108.613 Y133.284 E24.75214
G1 X107.01 Y133.032 E24.94687
G1 X106.257 Y132.873 E25.03922
G1 X105.746 Y132.718 E25.1033
G1 X104.311 Y132.223 E25.28546
G1 X103.322 Y131.799 E25.41458
G1 X101.479 Y130.845 E25.66361
G1 X100.712 Y130.387 E25.77082
G1 X99.335 Y129.448 E25.97082
G1 X98.625 Y128.898 E26.07859
G1 X97.683 Y128.072 E26.22893
G1 X97.089 Y127.489 E26.32881
G1 X95.743 Y126.01 E26.56878
G1 X95.12 Y125.224 E26.68914
G1 X93.917 Y123.476 E26.94377
G1 X93.515 Y122.821 E27.036
G1 X93.06 Y121.815 E27.16849
G1 X92.545 Y120.402 E27.34896
G1 X92.32 Y119.667 E27.4412
G1 X92.183 Y118.984 E27.52479
G1 X92.061 Y118.184 E27.6219
G1 X91.984 Y117.418 E27.71429
G1 X91.989 Y116.636 E27.80813
G1 X92.079 Y115.096 E27.99324
G1 X92.163 Y114.332 E28.08548
G1 X92.324 Y113.593 E28.17624
G1 X92.948 Y111.29 E28.46256
G1 X93.227 Y110.458 E28.56787
G1 X94.263 Y107.888 E28.90038
G1 X94.417 Y107.533 E28.94682
G1 X95.528 Y105.145 E29.26287
G1 X95.823 Y104.576 E29.33978
G1 X97.261 Y102.077 E29.68577
G1 X97.461 Y101.75 E29.73176
G1 X98.831 Y99.631 E30.03456
G1 X99.131 Y99.201 E30.09748
G1 X101.12 Y96.556 E30.49461
G1 X101.559 Y96.025 E30.57728
G1 X103.436 Y93.961 E30.91206
G0 F3600 X103.732 Y94.23
G1 F1200 X104.168 Y93.792 E30.98623
G1 X105.514 Y92.552 E31.20584
G1 X106.024 Y92.125 E31.28566
G1 X106.822 Y91.519 E31.4059
G1 X107.441 Y91.099 E31.49566
G1 X108.101 Y90.748 E31.58537
G1 X108.795 Y90.469 E31.67513
G1 X109.708 Y90.225 E31.78853
G1 X110.279 Y90.113 E31.85836
G1 X111.019 Y90.008 E31.94805
G1 X111.767 Y89.983 E32.03786
G1 X112.201 Y90.006 E32.09001
G1 X112.965 Y90.069 E32.182
G1 X113.706 Y90.17 E32.27174
G1 X114.433 Y90.35 E32.36162
G1 X115.135 Y90.606 E32.45128
G1 X115.807 Y90.936 E32.54112
G1 X116.275 Y91.222 E32.60694
G1 X116.849 Y91.605 E32.68974
G1 X117.448 Y92.053 E32.7795
G1 X117.97 Y92.535 E32.86476
G1 X119.925 Y94.535 E33.20038
G1 X120.3 Y94.951 E33.26759
G1 X122.314 Y97.372 E33.64549
G1 X122.618 Y97.765 E33.70511
G1 X124.238 Y100.02 E34.0383
G1 X124.6 Y100.578 E34.11812
G1 X126.159 Y103.252 E34.48955
G1 X126.332 Y103.567 E34.53268
G1 X127.347 Y105.533 E34.79819
G1 X127.566 Y105.998 E34.85986
G1 X128.872 Y109.061 E35.25944
G1 X129.072 Y109.587 E35.32697
G1 X130.05 Y112.511 E35.69696
G1 X130.249 Y113.232 E35.78671
G1 X130.364 Y113.923 E35.87077
G1 X130.582 Y115.8 E36.09753
G1 X130.629 Y116.547 E36.18734
G1 X130.612 Y117.091 E36.25266
G1 X130.54 Y118.132 E36.37787
G1 X130.449 Y118.874 E36.46758
G1 X130.266 Y119.647 E36.5629
G1 X129.909 Y120.846 E36.71303
G1 X129.657 Y121.55 E36.80276
G1 X129.256 Y122.358 E36.911
G1 X128.51 Y123.645 E37.08951
G1 X127.924 Y124.503 E37.21419
G1 X126.814 Y125.893 E37.42765
G1 X126.165 Y126.6 E37.54282
G1 X124.502 Y128.18 E37.81808
G1 X123.818 Y128.752 E37.92508
G1 X122.431 Y129.768 E38.1314
G1 X121.804 Y130.177 E38.22123
G1 X121.467 Y130.361 E38.26731
G1 X119.758 Y131.23 E38.49738
G1 X119.163 Y131.498 E38.57568
G1 X118.186 Y131.885 E38.70179
G1 X117.429 Y132.136 E38.79749
G1 X115.67 Y132.61 E39.0161
G1 X114.939 Y132.766 E39.1058
G1 X114.35 Y132.833 E39.17693
G1 X112.011 Y133.001 E39.45833
G1 X111.33 Y133.017 E39.54008
G1 X109.582 Y132.972 E39.74991
G1 X108.675 Y132.889 E39.8592
G1 X107.072 Y132.637 E40.05392
G1 X106.34 Y132.482 E40.14371
G1 X105.876 Y132.339 E40.20198
G1 X104.441 Y131.844 E40.38413
G1 X103.506 Y131.444 E40.50617
G1 X101.663 Y130.49 E40.7552
G1 X100.937 Y130.056 E40.8567
G1 X99.56 Y129.117 E41.0567
G1 X98.889 Y128.597 E41.15857
G1 X97.947 Y127.771 E41.30892
G1 X97.385 Y127.219 E41.40345
G1 X96.039 Y125.74 E41.64342
G1 X95.45 Y124.998 E41.7571
G1 X94.247 Y123.25 E42.01174
G1 X93.856 Y122.611 E42.10163
G1 X93.436 Y121.678 E42.22442
G1 X92.921 Y120.265 E42.40489
G1 X92.703 Y119.55 E42.49459
G1 X92.578 Y118.923 E42.57131
G1 X92.456 Y118.123 E42.66842
G1 X92.383 Y117.379 E42.75813
G1 X92.388 Y116.66 E42.84441
G1 X92.478 Y115.12 E43.02952
G1 X92.561 Y114.376 E43.11936
G1 X92.71 Y113.697 E43.20277
G1 X93.334 Y111.394 E43.4891
G1 X93.598 Y110.608 E43.5886
G1 X94.634 Y108.038 E43.92111
G1 X94.779 Y107.702 E43.96503
G1 X95.89 Y105.314 E44.28108
G1 X96.17 Y104.776 E44.35386
G1 X97.608 Y102.277 E44.69985
G1 X97.797 Y101.967 E44.74341
G1 X99.167 Y99.848 E45.04621
G1 X99.45 Y99.442 E45.1056
G1 X101.439 Y96.797 E45.50273
G1 X101.855 Y96.294 E45.58106
G1 X103.732 Y94.23 E45.91584
G0 F3600 X104.028 Y94.5
G1 F1200 X104.439 Y94.086 E45.98584
G1 X105.785 Y92.846 E46.20545
G1 X106.265 Y92.444 E46.28059
G1 X107.063 Y91.838 E46.40083
G1 X107.665 Y91.431 E46.48803
G1 X108.308 Y91.093 E46.5752
G1 X108.984 Y90.827 E46.66238
G1 X109.785 Y90.617 E46.76174
G1 X110.356 Y90.505 E46.83157
G1 X111.075 Y90.405 E46.91868
G1 X111.801 Y90.384 E47.00584
G1 X112.168 Y90.404 E47.04994
G1 X112.932 Y90.467 E47.14193
G1 X113.652 Y90.567 E47.22916
G1 X114.356 Y90.745 E47.3163
G1 X115.037 Y90.999 E47.40352
G1 X115.685 Y91.326 E47.49062
G1 X116.053 Y91.555 E47.54263
G1 X116.627 Y91.938 E47.62544
G1 X117.208 Y92.374 E47.71261
G1 X117.684 Y92.814 E47.79039
G1 X119.639 Y94.814 E48.12601
G1 X119.993 Y95.207 E48.18948
G1 X122.007 Y97.628 E48.56738
G1 X122.293 Y97.998 E48.6235
G1 X123.913 Y100.253 E48.95669
G1 X124.255 Y100.78 E49.03208
G1 X125.814 Y103.454 E49.40351
G1 X125.977 Y103.75 E49.44406
G1 X126.992 Y105.716 E49.70957
G1 X127.198 Y106.155 E49.76776
G1 X128.504 Y109.218 E50.16734
G1 X128.692 Y109.713 E50.23088
G1 X129.67 Y112.637 E50.60086
G1 X129.862 Y113.338 E50.68808
G1 X129.967 Y113.97 E50.76496
G1 X130.185 Y115.847 E50.99171
G1 X130.229 Y116.572 E51.07887
G1 X130.213 Y117.063 E51.13782
G1 X130.141 Y118.104 E51.26304
G1 X130.051 Y118.825 E51.35023
G1 X129.883 Y119.532 E51.43744
G1 X129.526 Y120.731 E51.58756
G1 X129.28 Y121.415 E51.67479
G1 X128.91 Y122.158 E51.77439
G1 X128.164 Y123.445 E51.9529
G1 X127.611 Y124.253 E52.07039
G1 X126.501 Y125.643 E52.28385
G1 X125.89 Y126.31 E52.3924
G1 X124.227 Y127.89 E52.66767
G1 X123.581 Y128.429 E52.76863
G1 X122.194 Y129.445 E52.97494
G1 X121.285 Y130.004 E53.103
G1 X119.576 Y130.873 E53.33307
G1 X119.016 Y131.126 E53.40681
G1 X118.039 Y131.513 E53.53291
G1 X117.325 Y131.75 E53.62319
G1 X115.566 Y132.224 E53.8418
G1 X114.856 Y132.374 E53.92888
G1 X114.322 Y132.434 E53.99336
G1 X111.983 Y132.602 E54.27476
G1 X111.34 Y132.617 E54.35194
G1 X109.592 Y132.572 E54.56177
G1 X108.737 Y132.494 E54.6648
G1 X107.134 Y132.242 E54.85952
G1 X106.424 Y132.09 E54.94665
G1 X106.007 Y131.961 E54.99903
G1 X104.572 Y131.466 E55.18119
G1 X103.69 Y131.088 E55.29634
G1 X101.847 Y130.134 E55.54537
G1 X101.163 Y129.726 E55.64095
G1 X99.786 Y128.787 E55.84095
G1 X99.153 Y128.296 E55.93708
G1 X98.211 Y127.47 E56.08742
G1 X97.681 Y126.95 E56.17652
G1 X96.335 Y125.471 E56.4165
G1 X95.779 Y124.771 E56.52377
G1 X94.576 Y123.023 E56.77841
G1 X94.198 Y122.403 E56.86554
G1 X93.812 Y121.541 E56.97888
G1 X93.297 Y120.128 E57.15935
G1 X93.086 Y119.433 E57.24651
G1 X92.973 Y118.863 E57.31624
G1 X92.851 Y118.063 E57.41335
G1 X92.782 Y117.34 E57.50051
G1 X92.787 Y116.683 E57.57935
G1 X92.877 Y115.143 E57.76446
G1 X92.959 Y114.421 E57.85166
G1 X93.096 Y113.802 E57.92774
G1 X93.72 Y111.499 E58.21406
G1 X93.969 Y110.757 E58.30798
G1 X95.005 Y108.187 E58.6405
G1 X95.142 Y107.871 E58.68183
G1 X96.253 Y105.483 E58.99788
G1 X96.516 Y104.975 E59.06653
G1 X97.954 Y102.476 E59.41251
G1 X98.133 Y102.185 E59.45351
G1 X99.503 Y100.066 E59.75631
G1 X99.77 Y99.682 E59.81243
G1 X101.759 Y97.037 E60.20956
G1 X102.151 Y96.564 E60.28328
G1 X104.028 Y94.5 E60.61806
G0 F3600 X104.324 Y94.769
G1 F1200 X104.71 Y94.38 E60.68382
G1 X106.056 Y93.14 E60.90343
G1 X106.507 Y92.762 E60.97405
G1 X107.305 Y92.156 E61.09429
G1 X107.889 Y91.763 E61.17876
G1 X108.514 Y91.439 E61.26324
G1 X109.172 Y91.187 E61.34779
G1 X109.862 Y91.01 E61.43327
G1 X110.433 Y90.898 E61.5031
G1 X111.13 Y90.802 E61.58753
G1 X112.136 Y90.803 E61.70825
G1 X112.9 Y90.866 E61.80024
G1 X113.597 Y90.964 E61.8847
G1 X114.278 Y91.14 E61.96911
G1 X114.936 Y91.392 E62.05366
G1 X115.831 Y91.888 E62.17645
G1 X116.405 Y92.271 E62.25926
G1 X116.968 Y92.694 E62.34376
G1 X117.398 Y93.094 E62.41423
G1 X119.353 Y95.094 E62.74985
G1 X119.685 Y95.463 E62.80941
G1 X121.699 Y97.884 E63.18732
G1 X121.968 Y98.232 E63.2401
G1 X123.588 Y100.487 E63.57329
G1 X123.909 Y100.981 E63.64398
G1 X125.468 Y103.655 E64.01542
G1 X125.621 Y103.934 E64.0536
G1 X126.636 Y105.9 E64.31911
G1 X126.83 Y106.312 E64.37376
G1 X128.136 Y109.375 E64.77333
G1 X128.313 Y109.84 E64.83304
G1 X129.291 Y112.764 E65.20302
G1 X129.476 Y113.444 E65.28759
G1 X129.57 Y114.016 E65.35715
G1 X129.788 Y115.893 E65.5839
G1 X129.829 Y116.595 E65.66829
G1 X129.814 Y117.036 E65.72124
G1 X129.742 Y118.077 E65.84646
G1 X129.654 Y118.775 E65.93088
G1 X129.499 Y119.418 E66.01025
G1 X129.142 Y120.617 E66.16037
G1 X128.903 Y121.279 E66.24483
G1 X128.564 Y121.957 E66.33579
G1 X127.818 Y123.244 E66.5143
G1 X127.299 Y124.004 E66.62474
G1 X126.189 Y125.394 E66.8382
G1 X125.614 Y126.02 E66.9402
G1 X123.951 Y127.6 E67.21547
G1 X123.345 Y128.107 E67.31028
G1 X121.958 Y129.123 E67.5166
G1 X121.104 Y129.648 E67.63689
G1 X119.395 Y130.517 E67.86696
G1 X118.868 Y130.754 E67.9363
G1 X117.891 Y131.141 E68.06241
G1 X117.221 Y131.363 E68.14711
G1 X115.462 Y131.837 E68.36572
G1 X114.773 Y131.982 E68.45021
G1 X114.293 Y132.035 E68.50816
G1 X111.954 Y132.203 E68.78956
G1 X111.35 Y132.217 E68.86206
G1 X109.602 Y132.172 E69.07189
G1 X108.799 Y132.099 E69.16865
G1 X107.196 Y131.847 E69.36337
G1 X106.508 Y131.698 E69.44784
G1 X106.137 Y131.583 E69.49445
G1 X104.702 Y131.088 E69.67661
G1 X103.874 Y130.733 E69.78472
G1 X102.031 Y129.779 E70.03375
G1 X101.388 Y129.395 E70.12362
G1 X100.011 Y128.456 E70.32362
G1 X99.416 Y127.996 E70.41387
G1 X98.474 Y127.17 E70.56422
G1 X97.977 Y126.681 E70.64788
G1 X96.631 Y125.202 E70.88786
G1 X96.109 Y124.544 E70.98865
G1 X94.906 Y122.796 E71.24328
G1 X94.54 Y122.194 E71.32783
G1 X94.188 Y121.404 E71.43161
G1 X93.673 Y119.991 E71.61208
G1 X93.47 Y119.317 E71.69655
G1 X93.369 Y118.803 E71.75941
G1 X93.247 Y118.003 E71.85652
G1 X93.18 Y117.302 E71.94102
G1 X93.187 Y116.706 E72.01255
G1 X93.277 Y115.166 E72.19766
G1 X93.357 Y114.467 E72.28209
G1 X93.482 Y113.907 E72.35095
G1 X94.106 Y111.604 E72.63727
G1 X94.34 Y110.907 E72.7255
G1 X95.376 Y108.337 E73.05801
G1 X95.505 Y108.04 E73.09687
G1 X96.616 Y105.652 E73.41292
G1 X96.863 Y105.175 E73.47738
G1 X98.301 Y102.676 E73.82337
G1 X98.468 Y102.402 E73.86187
G1 X99.838 Y100.283 E74.16467
G1 X100.09 Y99.923 E74.2174
G1 X102.079 Y97.278 E74.61453
G1 X102.447 Y96.833 E74.68382
G1 X104.324 Y94.769 E75.01861
G0 F3600 X104.62 Y95.038
G1 F1200 X104.981 Y94.674 E75.08012
G1 X106.327 Y93.434 E75.29974
G1 X106.749 Y93.081 E75.36576
G1 X107.547 Y92.475 E75.486
G1 X108.113 Y92.096 E75.56774
G1 X108.719 Y91.785 E75.64948
G1 X109.357 Y91.548 E75.73115
G1 X109.939 Y91.402 E75.80315
