;FLAVOR:UltiGCode
;TIME:5888
;MATERIAL:9718
;MATERIAL2:0
;NOZZLE_DIAMETER:0.4
;Generated with Cura_SteamEngine 4.0.0
M82 ;absolute extrusion mode

G92 E0
G10
;LAYER_COUNT:36
;LAYER:0
M107
G0 F3600 X18.391 Y60.372 Z0.3
;TYPE:SKIRT
G11
G1 F1800 X18.859 Y60.288 E0.05706
G1 X19.536 Y60.218 E0.13873
G1 X19.866 Y60.201 E0.17838
G1 X73.435 Y60.213 E6.60666
G1 X73.939 Y60.253 E6.66733
G1 X74.276 Y60.326 E6.70871
G1 X74.969 Y60.515 E6.79491
G1 X75.445 Y60.686 E6.8556
G1 X75.888 Y60.93 E6.91629
G1 X76.374 Y61.323 E6.99129
G1 X76.939 Y61.88 E7.0865
G1 X77.397 Y62.449 E7.17415
G1 X79.518 Y65.804 E7.65046
G1 X82.671 Y70.309 E8.31031
G1 X86.065 Y74.62 E8.96872
G1 X87.815 Y76.658 E9.29107
G1 X91.581 Y80.685 E9.95269
G1 X95.535 Y84.462 E10.60886
G1 X99.708 Y88.017 E11.2667
G1 X104.061 Y91.32 E11.92241
G1 X108.613 Y94.386 E12.58101
G1 X113.313 Y97.177 E13.23695
G1 X118.173 Y99.704 E13.89428
G1 X123.159 Y101.947 E14.55035
G1 X128.275 Y103.91 E15.20791
G1 X133.51 Y105.586 E15.86752
G1 X138.476 Y106.888 E16.48359
G1 X138.953 Y107.054 E16.54419
G1 X139.398 Y107.294 E16.60486
G1 X139.8 Y107.6 E16.66549
G1 X140.149 Y107.967 E16.72626
G1 X140.435 Y108.383 E16.78684
G1 X140.653 Y108.839 E16.84749
G1 X140.796 Y109.324 E16.90817
G1 X140.864 Y109.988 E16.98827
G1 X140.856 Y114.89 E17.57651
G1 X140.788 Y115.54 E17.65493
G1 X140.584 Y116.515 E17.77447
G1 X140.442 Y117 E17.83511
G1 X140.239 Y117.432 E17.89239
G1 X139.749 Y118.301 E18.0121
G1 X139.467 Y118.72 E18.07271
G1 X139.296 Y118.918 E18.10411
G1 X138.886 Y119.355 E18.17601
G1 X138.512 Y119.696 E18.23675
G1 X138.294 Y119.85 E18.26878
G1 X137.53 Y120.346 E18.37808
G1 X136.858 Y120.678 E18.46803
G1 X130.551 Y122.916 E19.2711
G1 X125.512 Y125.041 E19.92735
G1 X120.61 Y127.441 E20.58231
G1 X115.819 Y130.134 E21.24183
G1 X111.196 Y133.085 E21.89998
G1 X108.996 Y134.625 E22.22223
G1 X104.627 Y137.969 E22.88246
G1 X100.47 Y141.543 E23.54031
G1 X96.521 Y145.345 E24.19813
G1 X92.791 Y149.368 E24.85646
G1 X91.023 Y151.442 E25.1835
G1 X89.324 Y153.558 E25.50914
G1 X86.069 Y157.979 E26.16794
G1 X83.018 Y162.642 E26.83663
G1 X82.824 Y162.908 E26.87614
G1 X77.389 Y169.598 E27.91048
G1 X77.04 Y169.964 E27.97117
G1 X76.638 Y170.27 E28.03179
G1 X76.192 Y170.51 E28.09257
G1 X75.715 Y170.676 E28.15318
G1 X75.217 Y170.765 E28.21388
G1 X74.712 Y170.774 E28.27449
G1 X74.234 Y170.709 E28.33238
G1 X68.26 Y169.427 E29.06558
G1 X65.605 Y168.975 E29.38876
G1 X60.165 Y168.278 E30.0469
G1 X54.685 Y167.888 E30.70616
G1 X50.556 Y167.8 E31.20176
G1 X18.108 Y167.79 E35.09552
G1 X17.604 Y167.75 E35.15619
G1 X17.113 Y167.631 E35.21681
G1 X16.646 Y167.436 E35.27754
G1 X16.216 Y167.17 E35.33822
G1 X15.833 Y166.84 E35.39888
G1 X15.507 Y166.453 E35.45961
G1 X15.246 Y166.02 E35.52027
G1 X15.057 Y165.552 E35.58084
G1 X14.944 Y165.059 E35.64154
G1 X14.909 Y164.588 E35.69821
G1 X14.957 Y64.542 E47.70373
G1 X14.997 Y64.038 E47.7644
G1 X15.116 Y63.547 E47.82503
G1 X15.335 Y63.035 E47.89185
G1 X15.673 Y62.403 E47.97786
G1 X15.946 Y61.977 E48.03857
G1 X16.445 Y61.455 E48.12523
G1 X16.795 Y61.163 E48.17993
G1 X17.208 Y60.871 E48.24062
G1 X17.57 Y60.685 E48.28946
G1 X17.913 Y60.536 E48.33434
G1 X18.391 Y60.372 E48.39498
G10
;MESH:change_compartment_orange.stl
G0 F3600 X19.471 Y62.747
G0 X19.639 Y64.019
G0 X24.63 Y68.93
G0 X24.7 Y69
;TYPE:WALL-INNER
G11
G1 F1800 X24.7 Y90.2 E50.93898
G1 X35.802 Y90.2 E52.27122
G1 X37.486 Y89.211 E52.50557
G1 X38.968 Y88.164 E52.72332
G1 X40.355 Y86.997 E52.94083
G1 X41.641 Y85.716 E53.15865
G1 X42.814 Y84.333 E53.37627
G1 X43.867 Y82.854 E53.59413
G1 X44.791 Y81.294 E53.81171
G1 X45.581 Y79.661 E54.02939
G1 X46.232 Y77.968 E54.24706
G1 X46.736 Y76.225 E54.46478
G1 X47.094 Y74.445 E54.68266
G1 X47.3 Y72.634 E54.90138
G1 X47.3 Y69 E55.33746
G1 X39.842 Y69 E56.23242
G1 X39.715 Y69 E56.24766
G1 X39.3 Y69 E56.29746
G1 X38.885 Y69 E56.34726
G1 X38.758 Y69 E56.3625
G1 X24.7 Y69 E58.04946
G0 F3600 X24.63 Y68.93
G0 X38.848 Y65.457
G0 X38.885 Y65.549
G1 F1800 X38.497 Y65.71 E58.09987
G1 X38.165 Y65.965 E58.15011
G1 X37.91 Y66.297 E58.20034
G1 X37.749 Y66.685 E58.25075
G1 X37.695 Y67.1 E58.30097
G1 X37.749 Y67.515 E58.35119
G1 X37.91 Y67.903 E58.4016
G1 X38.165 Y68.235 E58.45184
G1 X38.497 Y68.49 E58.50207
G1 X38.768 Y68.603 E58.53731
G1 X38.885 Y68.651 E58.55153
G1 X39.3 Y68.705 E58.59201
G1 X39.715 Y68.651 E58.6325
G1 X39.832 Y68.603 E58.64672
G1 X40.103 Y68.49 E58.68196
G1 X40.435 Y68.235 E58.73219
G1 X40.69 Y67.903 E58.78243
G1 X40.851 Y67.515 E58.83284
G1 X40.905 Y67.1 E58.88306
G1 X40.851 Y66.685 E58.93328
G1 X40.69 Y66.297 E58.98369
G1 X40.435 Y65.965 E59.03392
G1 X40.103 Y65.71 E59.08416
G1 X39.715 Y65.549 E59.13457
G1 X39.3 Y65.495 E59.18479
G1 X38.885 Y65.549 E59.23501
G0 F3600 X38.848 Y65.457
G0 X70.47 Y65.454
G0 X70.893 Y65.51
G0 X71.29 Y65.674
G0 X71.633 Y65.937
G0 X71.845 Y66.214
G0 X72.176 Y67.1
G0 X72.076 Y67.1
G1 F1800 X72.02 Y66.685 E59.28526
G1 X71.861 Y66.298 E59.33546
G1 X71.605 Y65.965 E59.38587
G1 X71.272 Y65.709 E59.43627
G1 X70.884 Y65.549 E59.48663
G1 X70.47 Y65.495 E59.53674
G1 X70.055 Y65.549 E59.58696
G1 X69.668 Y65.709 E59.63721
G1 X69.334 Y65.965 E59.68771
G1 X69.079 Y66.298 E59.73804
G1 X68.919 Y66.685 E59.78829
G1 X68.865 Y67.1 E59.83851
G1 X68.919 Y67.515 E59.88873
G1 X69.079 Y67.902 E59.93898
G1 X69.334 Y68.235 E59.98931
G1 X69.668 Y68.491 E60.03981
G1 X70.055 Y68.651 E60.09006
G1 X70.47 Y68.705 E60.14028
G1 X70.884 Y68.651 E60.19038
G1 X71.272 Y68.491 E60.24075
G1 X71.605 Y68.235 E60.29115
G1 X71.861 Y67.902 E60.34155
G1 X72.02 Y67.515 E60.39176
G1 X72.076 Y67.1 E60.44201
G0 F3600 X72.176 Y67.1
G0 X74.261 Y139.624
G0 X76.348 Y150.957
G0 X76.385 Y151.049
G1 F1800 X75.997 Y151.21 E60.49242
G1 X75.665 Y151.465 E60.54266
G1 X75.41 Y151.797 E60.59289
G1 X75.249 Y152.185 E60.6433
G1 X75.195 Y152.6 E60.69352
G1 X75.249 Y153.015 E60.74374
G1 X75.41 Y153.403 E60.79415
G1 X75.665 Y153.735 E60.84439
G1 X75.997 Y153.99 E60.89462
G1 X76.385 Y154.151 E60.94503
G1 X76.8 Y154.205 E60.99525
G1 X77.215 Y154.151 E61.04547
G1 X77.603 Y153.99 E61.09588
G1 X77.935 Y153.735 E61.14611
G1 X78.19 Y153.403 E61.19635
G1 X78.351 Y153.015 E61.24676
G1 X78.405 Y152.6 E61.29698
G1 X78.351 Y152.185 E61.3472
G1 X78.19 Y151.797 E61.39761
G1 X77.935 Y151.465 E61.44784
G1 X77.603 Y151.21 E61.49808
G1 X77.215 Y151.049 E61.54849
G1 X76.8 Y150.995 E61.59871
G1 X76.385 Y151.049 E61.64893
G0 F3600 X76.348 Y150.957
G0 X75.637 Y151.437
G0 X75.376 Y151.777
G0 X75.21 Y152.178
G0 X75.179 Y152.416
G0 X75.519 Y163.93
G0 X75.449 Y164
G1 F1800 X18.7 Y164 E68.45881
G1 X18.7 Y64.94 E80.34601
G1 X18.735 Y64.671 E80.37856
G1 X18.826 Y64.452 E80.40702
G1 X18.967 Y64.267 E80.43493
G1 X19.152 Y64.126 E80.46284
G1 X19.371 Y64.035 E80.4913
G1 X19.64 Y64 E80.52385
G1 X73.36 Y64 E86.97025
G1 X73.629 Y64.035 E87.00281
G1 X73.848 Y64.126 E87.03127
G1 X74.033 Y64.267 E87.05918
G1 X74.174 Y64.452 E87.08709
G1 X74.265 Y64.671 E87.11555
G1 X74.3 Y64.94 E87.1481
G1 X74.3 Y139.618 E96.10946
G1 X79.388 Y152.42 E97.76258
G1 X79.783 Y153.571 E97.90861
G1 X80.069 Y154.757 E98.05501
G1 X80.241 Y155.96 E98.20084
G1 X80.3 Y157.203 E98.35017
G1 X80.3 Y159.298 E98.60157
G1 X80.247 Y159.76 E98.65737
G1 X80.106 Y160.159 E98.70815
G1 X79.844 Y160.567 E98.76634
G1 X75.804 Y165.538 E99.53502
G1 X75.45 Y165.974 E99.60241
G1 X75.45 Y165.413 E99.63802
G1 X75.45 Y165.412 E99.63814
G1 X75.449 Y164 E99.80758
G0 F3600 X75.049 Y164.4
;TYPE:WALL-OUTER
G1 F1800 X18.3 Y164.4 E106.61746
G1 X18.3 Y64.911 E118.55614
G1 X18.345 Y64.567 E118.59777
G1 X18.476 Y64.251 E118.63882
G1 X18.682 Y63.982 E118.67948
G1 X18.951 Y63.776 E118.72014
G1 X19.267 Y63.645 E118.76119
G1 X19.611 Y63.6 E118.80282
G1 X73.389 Y63.6 E125.25618
G1 X73.733 Y63.645 E125.29781
G1 X74.049 Y63.776 E125.33886
G1 X74.318 Y63.982 E125.37952
G1 X74.524 Y64.251 E125.42018
G1 X74.655 Y64.567 E125.46123
G1 X74.7 Y64.911 E125.50286
G1 X74.7 Y139.541 E134.45846
G1 X79.76 Y152.272 E136.10242
G1 X80.169 Y153.464 E136.25365
G1 X80.462 Y154.68 E136.40374
G1 X80.64 Y155.926 E136.55478
G1 X80.7 Y157.184 E136.70591
G1 X80.7 Y159.317 E136.96187
G1 X80.639 Y159.853 E137.02661
G1 X80.467 Y160.337 E137.08825
G1 X80.173 Y160.796 E137.15366
G1 X75.404 Y166.663 E138.06095
G1 X75.05 Y167.099 E138.12834
G1 X75.05 Y166.538 E138.16395
G1 X75.05 Y166.537 E138.16407
G1 X75.049 Y164.4 E138.42051
G0 F3600 X74.849 Y164.4
G0 X74.849 Y163.9
G0 X75.102 Y152.535
G0 X75.598 Y152.6
G1 F1800 X75.639 Y152.911 E138.45816
G1 X75.759 Y153.201 E138.49582
G1 X75.95 Y153.45 E138.53347
G1 X76.199 Y153.641 E138.57113
G1 X76.489 Y153.761 E138.60879
G1 X76.8 Y153.802 E138.64644
G1 X77.111 Y153.761 E138.68408
G1 X77.401 Y153.641 E138.72174
G1 X77.65 Y153.45 E138.7594
G1 X77.841 Y153.201 E138.79706
G1 X77.961 Y152.911 E138.83472
G1 X78.002 Y152.6 E138.87236
G1 X77.961 Y152.289 E138.91001
G1 X77.841 Y151.999 E138.94767
G1 X77.65 Y151.75 E138.98533
G1 X77.401 Y151.559 E139.02298
G1 X77.111 Y151.439 E139.06065
G1 X76.8 Y151.398 E139.09829
G1 X76.489 Y151.439 E139.13593
G1 X76.199 Y151.559 E139.17359
G1 X75.95 Y151.75 E139.21125
G1 X75.759 Y151.999 E139.24891
G1 X75.639 Y152.289 E139.28657
G1 X75.598 Y152.6 E139.32421
G0 F3600 X75.624 Y152.798
G0 X75.127 Y152.863
G0 X74.261 Y139.624
G0 X72.167 Y67.166
G0 X71.672 Y67.1
G1 F1800 X71.63 Y66.789 E139.36187
G1 X71.511 Y66.499 E139.39949
G1 X71.32 Y66.25 E139.43715
G1 X71.071 Y66.059 E139.47481
G1 X70.78 Y65.939 E139.51258
G1 X70.47 Y65.898 E139.5501
G1 X70.159 Y65.939 E139.58774
G1 X69.869 Y66.059 E139.62541
G1 X69.619 Y66.25 E139.66316
G1 X69.429 Y66.499 E139.70075
G1 X69.309 Y66.789 E139.73841
G1 X69.268 Y67.1 E139.77605
G1 X69.309 Y67.411 E139.81369
G1 X69.429 Y67.701 E139.85135
G1 X69.619 Y67.95 E139.88894
G1 X69.869 Y68.141 E139.92669
G1 X70.159 Y68.261 E139.96435
G1 X70.47 Y68.302 E140.002
G1 X70.78 Y68.261 E140.03952
G1 X71.071 Y68.141 E140.07729
G1 X71.32 Y67.95 E140.11495
G1 X71.511 Y67.701 E140.15261
G1 X71.63 Y67.411 E140.19023
G1 X71.672 Y67.1 E140.22789
G0 F3600 X71.646 Y66.902
G0 X72.141 Y66.835
G0 X71.896 Y66.28
G0 X71.633 Y65.937
G0 X71.29 Y65.674
G0 X70.893 Y65.51
G0 X70.47 Y65.454
G0 X39.3 Y65.454
G0 X38.878 Y65.51
G0 X38.477 Y65.676
G0 X38.137 Y65.937
G0 X37.927 Y66.212
G0 X37.602 Y67.035
G0 X38.098 Y67.1
G1 F1800 X38.139 Y67.411 E140.26553
G1 X38.259 Y67.701 E140.30319
G1 X38.45 Y67.95 E140.34085
G1 X38.699 Y68.141 E140.37851
G1 X38.989 Y68.261 E140.41617
G1 X39.3 Y68.302 E140.45381
G1 X39.611 Y68.261 E140.49145
G1 X39.901 Y68.141 E140.52912
G1 X40.15 Y67.95 E140.56677
G1 X40.341 Y67.701 E140.60443
G1 X40.461 Y67.411 E140.64209
G1 X40.502 Y67.1 E140.67974
G1 X40.461 Y66.789 E140.71738
G1 X40.341 Y66.499 E140.75504
G1 X40.15 Y66.25 E140.7927
G1 X39.901 Y66.059 E140.83036
G1 X39.611 Y65.939 E140.86802
G1 X39.3 Y65.898 E140.90566
G1 X38.989 Y65.939 E140.94331
G1 X38.699 Y66.059 E140.98097
G1 X38.45 Y66.25 E141.01862
G1 X38.259 Y66.499 E141.05628
G1 X38.139 Y66.789 E141.09394
G1 X38.098 Y67.1 E141.13159
G0 F3600 X38.124 Y67.298
G0 X37.627 Y67.363
G0 X25.1 Y68.9
G0 X25.1 Y69.4
G1 F1800 X25.1 Y89.8 E143.57959
G1 X35.693 Y89.8 E144.85075
G1 X37.269 Y88.875 E145.07004
G1 X38.723 Y87.847 E145.28372
G1 X40.085 Y86.702 E145.49724
G1 X41.347 Y85.445 E145.71099
G1 X42.498 Y84.087 E145.92461
G1 X43.531 Y82.636 E146.13834
G1 X44.438 Y81.105 E146.35188
G1 X45.214 Y79.502 E146.5656
G1 X45.852 Y77.84 E146.77923
G1 X46.347 Y76.13 E146.99285
G1 X46.698 Y74.383 E147.20668
G1 X46.9 Y72.611 E147.4207
G1 X46.9 Y69.4 E147.80602
G1 X25.1 Y69.4 E150.42202
G0 F3600 X25.1 Y69.6
G0 X24.6 Y69.6
G0 X24.31 Y68.61
;TYPE:SKIN
G1 F1800 X24.31 Y90.59 E153.05962
G1 X35.908 Y90.59 E154.45138
G1 X37.698 Y89.539 E154.70047
G1 X39.206 Y88.473 E154.92207
G1 X40.618 Y87.285 E155.14351
G1 X41.928 Y85.981 E155.36532
G1 X43.122 Y84.573 E155.58685
G1 X44.194 Y83.067 E155.80868
G1 X45.135 Y81.479 E156.03018
G1 X45.939 Y79.817 E156.25173
G1 X46.602 Y78.093 E156.47338
G1 X47.115 Y76.318 E156.6951
G1 X47.48 Y74.506 E156.91691
G1 X47.69 Y72.656 E157.14033
G1 X47.69 Y68.61 E157.62585
G1 X40.589 Y68.61 E158.47797
G1 X40.714 Y68.514 E158.49689
G1 X41.031 Y68.1 E158.55946
G1 X41.231 Y67.617 E158.62219
G1 X41.299 Y67.1 E158.68476
G1 X41.231 Y66.583 E158.74734
G1 X41.031 Y66.1 E158.81007
G1 X40.714 Y65.686 E158.87264
G1 X40.3 Y65.369 E158.93521
G1 X39.817 Y65.169 E158.99795
G1 X39.3 Y65.101 E159.06052
G1 X38.783 Y65.169 E159.12309
G1 X38.3 Y65.369 E159.18583
G1 X37.886 Y65.686 E159.2484
G1 X37.569 Y66.1 E159.31097
G1 X37.369 Y66.583 E159.3737
G1 X37.301 Y67.1 E159.43628
G1 X37.369 Y67.617 E159.49885
G1 X37.569 Y68.1 E159.56158
G1 X37.886 Y68.514 E159.62415
G1 X38.011 Y68.61 E159.64307
G1 X24.31 Y68.61 E161.28719
G0 F3600 X19.659 Y64.39
G1 F1800 X73.341 Y64.39 E167.72903
G1 X73.524 Y64.414 E167.75117
G1 X73.65 Y64.466 E167.76753
G1 X73.754 Y64.546 E167.78328
G1 X73.834 Y64.65 E167.79902
G1 X73.886 Y64.776 E167.81538
G1 X73.91 Y64.959 E167.83753
G1 X73.91 Y139.692 E176.80549
G1 X79.022 Y152.556 E178.46659
G1 X79.409 Y153.683 E178.60958
G1 X79.687 Y154.836 E178.7519
G1 X79.851 Y155.992 E178.89201
G1 X79.91 Y157.203 E179.03751
G1 X79.91 Y159.271 E179.28567
G1 X79.864 Y159.673 E179.33422
G1 X79.753 Y159.988 E179.3743
G1 X79.525 Y160.341 E179.42473
G1 X75.84 Y164.877 E180.12603
G1 X75.839 Y163.61 E180.27807
G1 X19.09 Y163.61 E187.08795
G1 X19.09 Y64.959 E198.92607
G1 X19.114 Y64.776 E198.94822
G1 X19.166 Y64.65 E198.96457
G1 X19.246 Y64.546 E198.98032
G1 X19.35 Y64.466 E198.99606
G1 X19.476 Y64.414 E199.01242
G1 X19.659 Y64.39 E199.03457
G0 F3600 X68.471 Y67.1
G1 F1800 X68.539 Y67.616 E199.09702
G1 X68.738 Y68.099 E199.15971
G1 X69.055 Y68.514 E199.22238
G1 X69.471 Y68.832 E199.28521
G1 X69.954 Y69.031 E199.3479
G1 X70.47 Y69.099 E199.41035
G1 X70.985 Y69.031 E199.47269
G1 X71.469 Y68.832 E199.53549
G1 X71.884 Y68.514 E199.59823
G1 X72.202 Y68.099 E199.66097
G1 X72.4 Y67.617 E199.7235
G1 X72.47 Y67.1 E199.7861
G1 X72.4 Y66.583 E199.84871
G1 X72.202 Y66.101 E199.91124
G1 X71.884 Y65.686 E199.97398
G1 X71.469 Y65.368 E200.03672
G1 X70.985 Y65.169 E200.09952
G1 X70.47 Y65.101 E200.16185
G1 X69.954 Y65.169 E200.22431
G1 X69.471 Y65.368 E200.28699
G1 X69.055 Y65.686 E200.34983
G1 X68.738 Y66.101 E200.41249
G1 X68.539 Y66.584 E200.47518
G1 X68.471 Y67.1 E200.53764
G0 F3600 X74.261 Y139.624
G0 X75.8 Y150.869
G1 F1800 X75.386 Y151.186 E200.60021
G1 X75.069 Y151.6 E200.66278
G1 X74.869 Y152.083 E200.72551
G1 X74.801 Y152.6 E200.78809
G1 X74.869 Y153.117 E200.85066
G1 X75.069 Y153.6 E200.91339
G1 X75.386 Y154.014 E200.97596
G1 X75.8 Y154.331 E201.03854
G1 X76.283 Y154.531 E201.10127
G1 X76.8 Y154.599 E201.16384
G1 X77.317 Y154.531 E201.22642
G1 X77.8 Y154.331 E201.28915
G1 X78.214 Y154.014 E201.35172
G1 X78.531 Y153.6 E201.41429
G1 X78.731 Y153.117 E201.47702
G1 X78.799 Y152.6 E201.5396
G1 X78.731 Y152.083 E201.60217
G1 X78.531 Y151.6 E201.6649
G1 X78.214 Y151.186 E201.72748
G1 X77.8 Y150.869 E201.79005
G1 X77.317 Y150.669 E201.85278
G1 X76.8 Y150.601 E201.91535
G1 X76.283 Y150.669 E201.97793
G1 X75.8 Y150.869 E202.04066
G0 F3600 X19.745 Y163.429
G1 F1800 X19.269 Y162.953 E202.12144
G0 F3600 X19.269 Y162.387
G1 F1800 X20.31 Y163.429 E202.29819
G0 F3600 X20.876 Y163.429
G1 F1800 X19.269 Y161.822 E202.57091
G0 F3600 X19.269 Y161.256
G1 F1800 X21.442 Y163.429 E202.93968
G0 F3600 X22.007 Y163.429
G1 F1800 X19.269 Y160.69 E203.40441
G0 F3600 X19.269 Y160.125
G1 F1800 X22.573 Y163.429 E203.96512
G0 F3600 X23.139 Y163.429
G1 F1800 X19.269 Y159.559 E204.62188
G0 F3600 X19.269 Y158.993
G1 F1800 X23.705 Y163.429 E205.3747
G0 F3600 X24.27 Y163.429
G1 F1800 X19.269 Y158.427 E206.22348
G0 F3600 X19.269 Y157.862
G1 F1800 X24.836 Y163.429 E207.16823
G0 F3600 X25.402 Y163.429
G1 F1800 X19.269 Y157.296 E208.20904
G0 F3600 X19.269 Y156.73
G1 F1800 X25.967 Y163.429 E209.34581
G0 F3600 X26.533 Y163.429
G1 F1800 X19.269 Y156.165 E210.57855
G0 F3600 X19.269 Y155.599
G1 F1800 X27.099 Y163.429 E211.90735
G0 F3600 X27.664 Y163.429
G1 F1800 X19.269 Y155.033 E213.33211
G0 F3600 X19.269 Y154.468
G1 F1800 X28.23 Y163.429 E214.85284
G0 F3600 X28.796 Y163.429
G1 F1800 X19.269 Y153.902 E216.46963
G0 F3600 X19.269 Y153.336
G1 F1800 X29.361 Y163.429 E218.18238
