;FLAVOR:UltiGCode
;TIME:10472
;MATERIAL:18271
;MATERIAL2:0
;NOZZLE_DIAMETER:0.4
;Generated with Cura_SteamEngine 4.0.0
M82 ;absolute extrusion mode

G92 E0
G10
;LAYER_COUNT:88
;LAYER:0
M107
G0 F3600 X12.777 Y60.439 Z0.3
;TYPE:SKIRT
G11
G1 F1800 X13.147 Y60.385 E0.04487
G1 X13.608 Y60.351 E0.10034
G1 X60.181 Y60.343 E5.6891
G1 X65.708 Y60.187 E6.3526
G1 X71.176 Y59.722 E7.01113
G1 X76.595 Y58.95 E7.66798
G1 X82.23 Y57.898 E8.35586
G1 X82.821 Y57.844 E8.42708
G1 X136.731 Y57.894 E14.89628
G1 X137.235 Y57.934 E14.95695
G1 X137.726 Y58.054 E15.0176
G1 X138.318 Y58.317 E15.09534
G1 X138.945 Y58.676 E15.18204
G1 X139.363 Y58.961 E15.24275
G1 X139.875 Y59.481 E15.33032
G1 X140.062 Y59.72 E15.36674
G1 X140.341 Y60.142 E15.42744
G1 X140.614 Y60.796 E15.51249
G1 X140.82 Y61.502 E15.60074
G1 X140.923 Y61.997 E15.66141
G1 X140.948 Y62.395 E15.70926
G1 X140.997 Y121.043 E22.74703
G1 X141.307 Y126.506 E23.40364
G1 X141.926 Y131.962 E24.06256
G1 X142.85 Y137.355 E24.71915
G1 X144.068 Y142.649 E25.37103
G1 X146.467 Y150.744 E26.38419
G1 X146.546 Y151.074 E26.42491
G1 X146.776 Y152.325 E26.57754
G1 X146.819 Y152.646 E26.61641
G1 X146.931 Y154.032 E26.78327
G1 X146.941 Y154.34 E26.82025
G1 X146.894 Y157.337 E27.17993
G1 X146.846 Y157.84 E27.24057
G1 X146.657 Y158.496 E27.32249
G1 X146.307 Y159.354 E27.43369
G1 X146.08 Y159.805 E27.49428
G1 X145.761 Y160.242 E27.5592
G1 X145.38 Y160.681 E27.62895
G1 X145.019 Y161.036 E27.68971
G1 X144.788 Y161.213 E27.72463
G1 X144.386 Y161.492 E27.78335
G1 X144.044 Y161.699 E27.83132
G1 X138.148 Y164.782 E28.62973
G1 X137.683 Y164.98 E28.69038
G1 X137.192 Y165.102 E28.75109
G1 X136.669 Y165.146 E28.81407
G1 X98.392 Y165.197 E33.40732
G1 X92.927 Y165.507 E34.06417
G1 X87.475 Y166.125 E34.7226
G1 X82.051 Y167.056 E35.383
G1 X79.461 Y167.613 E35.70091
G1 X74.11 Y169.004 E36.36437
G1 X69.381 Y170.497 E36.95946
G1 X68.889 Y170.61 E37.02003
G1 X68.419 Y170.645 E37.07659
G1 X13.292 Y170.656 E43.69183
G1 X12.912 Y170.633 E43.73751
G1 X11.981 Y170.522 E43.85002
G1 X11.485 Y170.423 E43.91072
G1 X11.012 Y170.247 E43.97128
G1 X10.571 Y169.998 E44.03205
G1 X10.176 Y169.684 E44.09261
G1 X9.889 Y169.378 E44.14295
G1 X6.923 Y165.773 E44.70315
G1 X4.279 Y162.794 E45.18112
G1 X3.974 Y162.391 E45.24177
G1 X3.842 Y162.164 E45.27328
G1 X3.576 Y161.66 E45.34167
G1 X3.376 Y161.195 E45.40241
G1 X3.3 Y160.938 E45.43457
G1 X3.172 Y160.423 E45.49825
G1 X3.09 Y159.924 E45.55893
G1 X3.078 Y159.652 E45.5916
G1 X3.077 Y156.459 E45.97476
G1 X3.102 Y156.057 E46.0231
G1 X3.345 Y154.135 E46.25557
G1 X3.415 Y153.764 E46.30088
G1 X3.678 Y152.706 E46.4317
G1 X3.732 Y152.512 E46.45587
G1 X5.062 Y148.311 E46.98465
G1 X6.475 Y142.989 E47.64541
G1 X7.066 Y140.308 E47.97486
G1 X7.568 Y137.668 E48.29734
G1 X8.37 Y132.223 E48.95778
G1 X8.859 Y126.774 E49.61429
G1 X9.042 Y120.814 E50.32983
G1 X9.064 Y64.788 E57.05295
G1 X9.104 Y64.284 E57.11362
G1 X9.187 Y63.909 E57.15971
G1 X9.336 Y63.388 E57.22474
G1 X9.513 Y62.915 E57.28534
G1 X9.763 Y62.475 E57.34607
G1 X10.051 Y62.109 E57.40195
G1 X10.488 Y61.631 E57.47967
G1 X10.858 Y61.286 E57.54038
G1 X11.476 Y60.9 E57.62782
G1 X11.865 Y60.715 E57.67951
G1 X12.337 Y60.535 E57.74013
G1 X12.777 Y60.439 E57.79417
G10
;MESH:lid_grey.stl
G0 F3600 X18.926 Y62.915
G0 X18.968 Y62.931
G0 X42.048 Y72.225
G0 X44.037 Y72.269
G0 X44.037 Y72.963
G0 X43.983 Y73.004
G0 X46.277 Y73.928
G0 X46.318 Y73.944
G0 X47.025 Y74.23
G0 X48.304 Y74.23
G0 X51.02 Y76.946
G0 X51.09 Y77.016
;TYPE:WALL-INNER
G11
G1 F1800 X48.29 Y77.016 E58.13017
G1 X48.29 Y74.216 E58.46617
G1 X51.09 Y74.216 E58.80217
G1 X51.09 Y77.016 E59.13817
G0 F3600 X51.49 Y77.416
;TYPE:WALL-OUTER
G1 F1800 X47.89 Y77.416 E59.57017
G1 X47.89 Y73.816 E60.00217
G1 X51.49 Y73.816 E60.43417
G1 X51.49 Y77.416 E60.86617
G0 F3600 X51.29 Y77.416
G0 X50.7 Y76.626
;TYPE:SKIN
G1 F1800 X48.68 Y76.626 E61.10857
G1 X48.68 Y74.606 E61.35097
G1 X50.7 Y74.606 E61.59337
G1 X50.7 Y76.626 E61.83577
G0 F3600 X50.519 Y74.844
G1 F1800 X50.46 Y74.785 E61.84578
G0 F3600 X49.894 Y74.785
G1 F1800 X50.519 Y75.41 E61.95185
G0 F3600 X50.519 Y75.975
G1 F1800 X49.329 Y74.785 E62.1538
G0 F3600 X48.859 Y74.881
G1 F1800 X50.423 Y76.445 E62.41922
G0 F3600 X49.858 Y76.445
G1 F1800 X48.859 Y75.446 E62.58875
G0 F3600 X48.859 Y76.012
G1 F1800 X49.292 Y76.445 E62.66223
G10
G0 F3600 X51.07 Y76.886
G0 X52.355 Y76.886
G0 X53.059 Y76.87
G0 X53.103 Y76.87
G0 X55.833 Y76.816
G0 X55.877 Y76.816
G0 X57.073 Y76.793
G0 X57.69 Y77.409
G0 X59.96 Y76.886
G0 X59.89 Y76.816
;TYPE:WALL-OUTER
G11
G1 F1800 X59.89 Y74.416 E62.95023
G1 X58.272 Y74.416 E63.14439
G1 X58.013 Y74.157 E63.18835
G1 X57.672 Y73.816 E63.24622
G1 X58.154 Y73.816 E63.27736
G1 X60.49 Y73.816 E63.55768
G1 X60.49 Y77.416 E63.98968
G1 X58.154 Y77.416 E64.27
G1 X57.672 Y77.416 E64.32784
G1 X58.013 Y77.075 E64.35899
G1 X58.272 Y76.816 E64.40295
G1 X59.89 Y76.816 E64.59711
G0 F3600 X59.89 Y76.616
G0 X60.189 Y76.594
;TYPE:SKIN
G1 F1800 X60.189 Y76.877 E64.61694
G1 X60.144 Y77.115 E64.63392
G1 X58.449 Y77.117 E64.75274
G1 X58.237 Y77.188 E64.76841
G0 F3600 X58.269 Y77.22
G0 X59.918 Y76.844
G0 X60.084 Y76.207
G0 X60.189 Y76.312
G1 F1800 X60.189 Y76.029 E64.78699
G1 X60.189 Y74.332 E64.89838
G1 X59.972 Y74.115 E64.91852
G1 X58.277 Y74.117 E65.02978
G0 F3600 X58.175 Y74.014
G0 X60.15 Y74.01
G1 F1800 X60.294 Y74.154 E65.042
G0 F3600 X60.172 Y74.134
G10
G0 X57.69 Y73.823
G0 X57.074 Y74.44
G0 X56.226 Y74.712
G0 X55.323 Y75.616
G0 X55.243 Y75.616
G0 X55.342 Y75.616
;TYPE:WALL-INNER
G11
G1 F1800 X54.29 Y76.667 E65.22045
G1 X54.29 Y74.565 E65.47269
G1 X55.342 Y75.616 E65.65113
G0 F3600 X55.243 Y75.616
G0 X54.454 Y77.018
G0 X54.208 Y80.098
G0 X63.36 Y80.286
G0 X63.29 Y80.216
G1 F1800 X63.29 Y71.016 E66.75513
G1 X36.09 Y71.016 E70.01913
G1 X36.09 Y77.016 E70.73913
G1 X33.29 Y77.016 E71.07513
G1 X33.29 Y71.016 E71.79513
G1 X30.09 Y71.016 E72.17913
G1 X30.09 Y77.016 E72.89913
G1 X27.29 Y77.016 E73.23513
G1 X27.29 Y73.367 E73.67301
G1 X24.939 Y71.016 E74.07199
G1 X18.09 Y71.016 E74.89387
G1 X18.09 Y77.865 E75.71575
G1 X20.441 Y80.216 E76.11473
G1 X63.29 Y80.216 E81.25661
G0 F3600 X63.36 Y80.286
G0 X27.37 Y117.93
G0 X27.3 Y118
G1 F1800 X15.1 Y118 E82.72061
G1 X15.1 Y139.2 E85.26461
G1 X27.3 Y139.2 E86.72861
G1 X27.3 Y118 E89.27261
G0 F3600 X27.37 Y117.93
G0 X23.487 Y117.972
G0 X22.913 Y139.228
G0 X12.927 Y163.474
G0 X12.842 Y163.525
G1 F1800 X7.818 Y160.904 E89.9526
G1 X7.436 Y160.642 E90.00819
G1 X7.157 Y160.327 E90.05868
G1 X6.961 Y159.954 E90.10924
G1 X6.856 Y159.524 E90.16236
G1 X6.842 Y159.309 E90.18821
G1 X6.843 Y157.208 E90.44033
G1 X6.885 Y156.158 E90.56644
G1 X7.063 Y154.825 E90.72782
G1 X7.385 Y153.506 E90.89074
G1 X7.745 Y152.472 E91.02213
G1 X12.842 Y139.644 E92.67855
G1 X12.843 Y64.939 E101.64315
G1 X12.873 Y64.705 E101.67146
G1 X12.949 Y64.521 E101.69535
G1 X13.065 Y64.37 E101.7182
G1 X13.224 Y64.248 E101.74225
G1 X13.406 Y64.173 E101.76587
G1 X13.64 Y64.142 E101.7942
G1 X67.361 Y64.143 E108.24072
G1 X67.595 Y64.173 E108.26903
G1 X67.779 Y64.249 E108.29291
G1 X67.933 Y64.367 E108.3162
G1 X68.051 Y64.521 E108.33948
G1 X68.127 Y64.705 E108.36337
G1 X68.158 Y64.94 E108.39181
G1 X68.152 Y166.854 E120.62149
G1 X12.843 Y166.856 E127.25857
G1 X12.842 Y163.525 E127.65829
G0 F3600 X12.442 Y163.768
;TYPE:WALL-OUTER
G1 F1800 X7.614 Y161.249 E128.31177
G1 X7.171 Y160.945 E128.37624
G1 X6.825 Y160.555 E128.4388
G1 X6.583 Y160.095 E128.50118
G1 X6.459 Y159.588 E128.56381
G1 X6.442 Y159.318 E128.59627
G1 X6.443 Y157.192 E128.85139
G1 X6.485 Y156.132 E128.97869
G1 X6.671 Y154.743 E129.14686
G1 X7 Y153.393 E129.3136
G1 X7.373 Y152.324 E129.44947
G1 X12.442 Y139.567 E131.09673
G1 X12.443 Y64.911 E140.05545
G1 X12.483 Y64.601 E140.09296
G1 X12.599 Y64.32 E140.12944
G1 X12.78 Y64.085 E140.16503
G1 X13.023 Y63.898 E140.20183
G1 X13.301 Y63.783 E140.23793
G1 X13.611 Y63.742 E140.27545
G1 X67.389 Y63.743 E146.72881
G1 X67.699 Y63.783 E146.76632
G1 X67.98 Y63.899 E146.8028
G1 X68.218 Y64.082 E146.83883
G1 X68.401 Y64.32 E146.87486
G1 X68.517 Y64.601 E146.91134
G1 X68.558 Y64.911 E146.94886
G1 X68.552 Y167.103 E159.2119
G1 X68.527 Y167.182 E159.22184
G1 X68.468 Y167.234 E159.23128
G1 X68.411 Y167.254 E159.23853
G1 X12.608 Y167.256 E165.93489
G1 X12.542 Y167.238 E165.9431
G1 X12.493 Y167.205 E165.95019
G1 X12.464 Y167.162 E165.95641
G1 X12.443 Y167.075 E165.96715
G1 X12.442 Y163.768 E166.36399
G0 F3600 X12.265 Y163.676
G0 X12.497 Y163.234
G0 X15.072 Y117.972
G0 X15.5 Y117.9
G0 X15.5 Y118.4
G1 F1800 X15.5 Y138.8 E168.81199
G1 X16.9 Y138.8 E168.97999
G1 X16.9 Y118.4 E171.42799
G1 X15.5 Y118.4 E171.59599
G0 F3600 X15.5 Y118.6
G0 X15 Y118.6
G0 X15.072 Y117.972
G0 X16.913 Y117.972
G0 X17.415 Y118.4
G0 X17.5 Y118.4
G1 F1800 X17.5 Y138.8 E174.04399
G1 X18.9 Y138.8 E174.21199
G1 X18.9 Y118.4 E176.65999
G1 X17.5 Y118.4 E176.82799
G0 F3600 X17.5 Y118.6
G0 X17.415 Y118.6
G0 X17.487 Y117.972
G0 X18.913 Y117.972
G0 X19.415 Y118.4
G0 X19.5 Y118.4
G1 F1800 X19.5 Y138.8 E179.27599
G1 X20.9 Y138.8 E179.44399
G1 X20.9 Y118.4 E181.89199
G1 X19.5 Y118.4 E182.05999
G0 F3600 X19.5 Y118.6
G0 X19.415 Y118.6
G0 X19.487 Y117.972
G0 X20.913 Y117.972
G0 X21.415 Y118.4
G0 X21.5 Y118.4
G1 F1800 X21.5 Y138.8 E184.50799
G1 X22.9 Y138.8 E184.67599
G1 X22.9 Y118.4 E187.12399
G1 X21.5 Y118.4 E187.29199
G0 F3600 X21.5 Y118.6
G0 X21.415 Y118.6
G0 X21.487 Y117.972
G0 X22.913 Y117.972
G0 X23.415 Y118.4
G0 X23.5 Y118.4
G1 F1800 X23.5 Y138.8 E189.73999
G1 X24.9 Y138.8 E189.90799
G1 X24.9 Y118.4 E192.35599
G1 X23.5 Y118.4 E192.52399
G0 F3600 X23.5 Y118.6
G0 X23.415 Y118.6
G0 X23.487 Y117.972
G0 X24.913 Y117.972
G0 X25.415 Y118.4
G0 X25.5 Y118.4
G1 F1800 X25.5 Y138.8 E194.97199
G1 X26.9 Y138.8 E195.13999
G1 X26.9 Y118.4 E197.58799
G1 X25.5 Y118.4 E197.75599
G0 F3600 X25.5 Y118.6
G0 X25.415 Y118.6
G0 X27.405 Y77.416
G0 X27.49 Y77.416
G1 F1800 X27.49 Y79.816 E198.04399
G1 X35.89 Y79.816 E199.05199
G1 X35.89 Y77.416 E199.33999
G1 X27.49 Y77.416 E200.34799
G0 F3600 X27.49 Y77.616
G0 X27.405 Y77.616
G0 X27.477 Y76.988
G0 X30.062 Y70.988
G0 X30.49 Y70.916
G0 X30.49 Y71.416
G1 F1800 X30.49 Y76.816 E200.99599
G1 X32.89 Y76.816 E201.28399
G1 X32.89 Y71.416 E201.93199
G1 X30.49 Y71.416 E202.21999
G0 F3600 X30.49 Y71.616
G0 X29.99 Y71.616
G0 X30.062 Y70.988
G0 X36.49 Y70.916
G0 X36.49 Y71.416
G1 F1800 X36.49 Y79.816 E203.22799
G1 X44.89 Y79.816 E204.23599
G1 X44.89 Y77.416 E204.52399
G1 X38.89 Y77.416 E205.24399
G1 X38.89 Y73.816 E205.67599
G1 X44.89 Y73.816 E206.39599
G1 X44.89 Y71.416 E206.68399
G1 X36.49 Y71.416 E207.69199
G0 F3600 X36.49 Y71.616
G0 X35.99 Y71.616
G0 X36.062 Y70.988
G0 X44.903 Y70.988
G0 X44.903 Y73.829
G0 X39.435 Y74.361
G0 X39.49 Y74.416
G1 F1800 X39.49 Y76.816 E207.97999
G1 X44.89 Y76.816 E208.62799
G1 X44.89 Y74.416 E208.91599
G1 X39.49 Y74.416 E209.56399
G0 F3600 X39.49 Y74.616
G0 X39.405 Y74.616
G0 X39.477 Y74.403
G0 X44.903 Y73.829
G0 X45.405 Y71.416
G0 X45.49 Y71.416
G1 F1800 X45.49 Y79.816 E210.57199
G1 X53.89 Y79.816 E211.57999
G1 X53.89 Y71.416 E212.58799
G1 X45.49 Y71.416 E213.59599
G0 F3600 X45.49 Y71.616
G0 X45.405 Y71.616
G0 X45.477 Y70.988
G0 X53.903 Y70.988
G0 X54.405 Y71.416
G0 X54.49 Y71.416
G1 F1800 X54.49 Y74.199 E213.92995
G1 X55.767 Y75.475 E214.14658
G1 X55.908 Y75.616 E214.17051
G1 X55.767 Y75.757 E214.18596
G1 X54.49 Y77.033 E214.40259
G1 X54.49 Y79.816 E214.73655
G1 X62.89 Y79.816 E215.74455
G1 X62.89 Y71.416 E216.75255
G1 X54.49 Y71.416 E217.76055
G0 F3600 X54.49 Y71.616
G0 X54.405 Y71.616
G0 X53.903 Y70.988
G0 X18.49 Y70.916
G0 X18.49 Y71.416
G1 F1800 X18.49 Y73.816 E218.04855
G1 X23.608 Y73.816 E218.66271
G1 X23.867 Y74.075 E218.70666
G1 X24.208 Y74.416 E218.76453
G1 X23.726 Y74.416 E218.79567
G1 X18.49 Y74.416 E219.42399
G1 X18.49 Y77.699 E219.81795
G1 X20.607 Y79.816 E220.17722
G1 X26.89 Y79.816 E220.93118
G1 X26.89 Y77.416 E221.21918
G1 X21.772 Y77.416 E221.83334
G1 X21.513 Y77.157 E221.87729
G1 X21.172 Y76.816 E221.93516
G1 X21.654 Y76.816 E221.9663
G1 X26.89 Y76.816 E222.59462
G1 X26.89 Y73.533 E222.98858
G1 X24.773 Y71.416 E223.34785
G1 X18.49 Y71.416 E224.10181
G0 F3600 X18.49 Y71.616
G0 X17.99 Y71.616
G0 X17.7 Y70.626
;TYPE:SKIN
G1 F1800 X17.7 Y78.027 E224.98993
G1 X20.279 Y80.606 E225.4276
G1 X63.68 Y80.606 E230.63572
G1 X63.68 Y70.626 E231.83332
G1 X35.7 Y70.626 E235.19092
G1 X35.7 Y76.626 E235.91092
G1 X33.68 Y76.626 E236.15332
G1 X33.68 Y70.626 E236.87332
G1 X29.7 Y70.626 E237.35092
G1 X29.7 Y76.626 E238.07092
G1 X27.68 Y76.626 E238.31332
G1 X27.68 Y73.205 E238.72384
G1 X25.101 Y70.626 E239.16151
G1 X17.7 Y70.626 E240.04963
G0 F3600 X13.233 Y64.964
G1 F1800 X13.253 Y64.804 E240.06898
G1 X13.288 Y64.719 E240.08001
G1 X13.343 Y64.648 E240.09079
G1 X13.419 Y64.59 E240.10226
G1 X13.512 Y64.551 E240.11436
G1 X13.661 Y64.532 E240.13239
G1 X67.336 Y64.533 E246.57339
G1 X67.496 Y64.553 E246.59274
G1 X67.578 Y64.587 E246.60339
G1 X67.654 Y64.646 E246.61494
G1 X67.713 Y64.722 E246.62648
G1 X67.748 Y64.808 E246.63762
G1 X67.768 Y64.96 E246.65602
G1 X67.762 Y166.464 E258.8365
G1 X13.233 Y166.466 E265.37998
G1 X13.232 Y163.289 E265.76122
G1 X8.021 Y160.57 E266.46655
G1 X7.697 Y160.348 E266.51368
G1 X7.479 Y160.102 E266.55312
G1 X7.329 Y159.817 E266.59177
G1 X7.244 Y159.469 E266.63476
G1 X7.232 Y159.284 E266.657
G1 X7.233 Y157.224 E266.9042
G1 X7.275 Y156.174 E267.0303
G1 X7.445 Y154.906 E267.18382
G1 X7.759 Y153.617 E267.34303
G1 X8.108 Y152.616 E267.47024
G1 X13.232 Y139.718 E269.13566
G1 X13.233 Y64.964 E278.10614
G0 F3600 X14.71 Y117.61
G1 F1800 X14.71 Y139.59 E280.74374
G1 X27.69 Y139.59 E282.30134
G1 X27.69 Y117.61 E284.93894
G1 X14.71 Y117.61 E286.49654
G0 F3600 X13.549 Y166.284
G1 F1800 X13.412 Y166.147 E286.51979
G0 F3600 X13.412 Y165.581
G1 F1800 X14.115 Y166.284 E286.6391
G0 F3600 X14.68 Y166.284
G1 F1800 X13.412 Y165.016 E286.85428
G0 F3600 X13.412 Y164.45
G1 F1800 X15.246 Y166.284 E287.16552
G0 F3600 X15.812 Y166.284
G1 F1800 X13.412 Y163.884 E287.57282
G0 F3600 X13.412 Y163.319
G1 F1800 X16.378 Y166.284 E288.07608
G0 F3600 X16.943 Y166.284
G1 F1800 X7.43 Y156.771 E289.69049
G0 F3600 X7.452 Y156.228
G1 F1800 X17.509 Y166.284 E291.39713
G0 F3600 X18.075 Y166.284
G1 F1800 X7.515 Y155.725 E293.18914
G0 F3600 X7.583 Y155.226
G1 F1800 X18.64 Y166.284 E295.06566
G0 F3600 X19.206 Y166.284
G1 F1800 X7.667 Y154.746 E297.02381
G0 F3600 X7.778 Y154.291
G1 F1800 X19.772 Y166.284 E299.05917
G0 F3600 X20.337 Y166.284
G1 F1800 X7.889 Y153.836 E301.17167
G0 F3600 X8.022 Y153.403
G1 F1800 X20.903 Y166.284 E303.35765
G0 F3600 X21.469 Y166.284
G1 F1800 X8.169 Y152.984 E305.61473
G0 F3600 X8.319 Y152.569
G1 F1800 X22.034 Y166.284 E307.94224
G0 F3600 X22.6 Y166.284
G1 F1800 X8.48 Y152.164 E310.33849
G0 F3600 X8.641 Y151.759
G1 F1800 X23.166 Y166.284 E312.80346
G0 F3600 X23.731 Y166.284
G1 F1800 X8.802 Y151.354 E315.33708
G0 F3600 X8.962 Y150.949
G1 F1800 X24.297 Y166.284 E317.93952
G0 F3600 X24.863 Y166.284
G1 F1800 X9.123 Y150.545 E320.6106
G0 F3600 X9.284 Y150.139
G1 F1800 X25.428 Y166.284 E323.35041
G0 F3600 X25.994 Y166.284
G1 F1800 X9.445 Y149.735 E326.15887
G0 F3600 X9.606 Y149.33
G1 F1800 X26.56 Y166.284 E329.03606
G0 F3600 X27.126 Y166.284
G1 F1800 X9.767 Y148.925 E331.98198
G0 F3600 X9.927 Y148.52
G1 F1800 X27.691 Y166.284 E334.99663
G0 F3600 X28.257 Y166.284
G1 F1800 X10.088 Y148.116 E338.07993
G0 F3600 X10.249 Y147.711
G1 F1800 X28.823 Y166.284 E341.23195
G0 F3600 X29.388 Y166.284
G1 F1800 X10.41 Y147.306 E344.45263
G0 F3600 X10.571 Y146.901
G1 F1800 X29.954 Y166.284 E347.74203
G0 F3600 X30.52 Y166.284
G1 F1800 X10.731 Y146.496 E351.10025
G0 F3600 X10.892 Y146.091
G1 F1800 X31.085 Y166.284 E354.52712
G0 F3600 X31.65 Y166.283
G1 F1800 X11.053 Y145.686 E358.02254
G0 F3600 X11.214 Y145.282
G1 F1800 X32.216 Y166.283 E361.58662
G0 F3600 X32.782 Y166.283
G1 F1800 X11.375 Y144.876 E365.21951
G0 F3600 X11.536 Y144.472
G1 F1800 X33.347 Y166.283 E368.92095
G0 F3600 X33.913 Y166.283
G1 F1800 X11.696 Y144.067 E372.69122
G0 F3600 X11.858 Y143.662
G1 F1800 X34.479 Y166.283 E376.53013
G0 F3600 X35.044 Y166.283
G1 F1800 X12.018 Y143.257 E380.43777
G0 F3600 X12.179 Y142.853
G1 F1800 X35.61 Y166.283 E384.41406
G0 F3600 X36.176 Y166.283
G1 F1800 X12.34 Y142.448 E388.45908
