;FLAVOR:UltiGCode
;TIME:278
;MATERIAL:388
;MATERIAL2:0
;NOZZLE_DIAMETER:0.4
;Generated with Cura_SteamEngine 4.0.0
M82 ;absolute extrusion mode

G92 E0
G10
;LAYER_COUNT:86
;LAYER:0
M107
G0 F3600 X96.123 Y101.849 Z0.3
;TYPE:SKIRT
G11
G1 F1800 X96.722 Y101.334 E0.09479
G1 X97.37 Y100.883 E0.18953
G1 X98.061 Y100.499 E0.2844
G1 X98.786 Y100.187 E0.37911
G1 X99.539 Y99.95 E0.47384
G1 X100.313 Y99.791 E0.56866
G1 X101.098 Y99.71 E0.66336
G1 X101.5 Y99.7 E0.71162
G1 X121.5 Y99.7 E3.11162
G1 X122.289 Y99.74 E3.20642
G1 X123.069 Y99.859 E3.3011
G1 X123.834 Y100.057 E3.39593
G1 X124.574 Y100.331 E3.49062
G1 X125.283 Y100.679 E3.58539
G1 X125.954 Y101.097 E3.68026
G1 X126.578 Y101.58 E3.77495
G1 X127.151 Y102.123 E3.86968
G1 X127.666 Y102.722 E3.96447
G1 X128.117 Y103.37 E4.05921
G1 X128.501 Y104.061 E4.15408
G1 X128.813 Y104.786 E4.24879
G1 X129.05 Y105.539 E4.34352
G1 X129.209 Y106.313 E4.43834
G1 X129.29 Y107.098 E4.53304
G1 X129.3 Y107.5 E4.5813
G1 X129.3 Y115.5 E5.5413
G1 X129.26 Y116.289 E5.6361
G1 X129.141 Y117.069 E5.73078
G1 X128.943 Y117.834 E5.82561
G1 X128.669 Y118.574 E5.9203
G1 X128.321 Y119.283 E6.01507
G1 X127.903 Y119.954 E6.10994
G1 X127.42 Y120.578 E6.20463
G1 X126.877 Y121.151 E6.29936
G1 X126.278 Y121.666 E6.39415
G1 X125.63 Y122.117 E6.48889
G1 X124.939 Y122.501 E6.58376
G1 X124.214 Y122.813 E6.67847
G1 X123.461 Y123.05 E6.7732
G1 X122.687 Y123.209 E6.86802
G1 X121.902 Y123.29 E6.96272
G1 X121.5 Y123.3 E7.01098
G1 X101.5 Y123.3 E9.41098
G1 X100.711 Y123.26 E9.50578
G1 X99.931 Y123.141 E9.60046
G1 X99.166 Y122.943 E9.69529
G1 X98.426 Y122.669 E9.78998
G1 X97.717 Y122.321 E9.88475
G1 X97.046 Y121.903 E9.97962
G1 X96.422 Y121.42 E10.07431
G1 X95.849 Y120.877 E10.16904
G1 X95.334 Y120.278 E10.26383
G1 X94.883 Y119.63 E10.35857
G1 X94.499 Y118.939 E10.45344
G1 X94.187 Y118.214 E10.54815
G1 X93.95 Y117.461 E10.64288
G1 X93.791 Y116.687 E10.7377
G1 X93.71 Y115.902 E10.8324
G1 X93.7 Y115.5 E10.88066
G1 X93.7 Y107.5 E11.84066
G1 X93.74 Y106.711 E11.93546
G1 X93.859 Y105.931 E12.03014
G1 X94.057 Y105.166 E12.12497
G1 X94.331 Y104.426 E12.21966
G1 X94.679 Y103.717 E12.31443
G1 X95.097 Y103.046 E12.4093
G1 X95.58 Y102.422 E12.50399
G1 X96.123 Y101.849 E12.59872
G0 F3600 X96.516 Y102.03
G1 F1800 X97.111 Y101.542 E12.69106
G1 X97.753 Y101.119 E12.78332
G1 X98.436 Y100.764 E12.87569
G1 X99.151 Y100.483 E12.96788
G1 X99.893 Y100.277 E13.06029
G1 X100.651 Y100.149 E13.15254
G1 X101.5 Y100.1 E13.25459
G1 X121.5 Y100.1 E15.65459
G1 X122.268 Y100.14 E15.74687
G1 X123.028 Y100.259 E15.83918
G1 X123.771 Y100.457 E15.93145
G1 X124.49 Y100.731 E16.02379
G1 X125.176 Y101.078 E16.11604
G1 X125.823 Y101.494 E16.20834
G1 X126.423 Y101.975 E16.30062
G1 X126.97 Y102.516 E16.39294
G1 X127.458 Y103.111 E16.48529
G1 X127.881 Y103.753 E16.57755
G1 X128.236 Y104.436 E16.66992
G1 X128.517 Y105.151 E16.7621
G1 X128.723 Y105.893 E16.85451
G1 X128.851 Y106.651 E16.94676
G1 X128.9 Y107.5 E17.04881
G1 X128.9 Y115.5 E18.00881
G1 X128.86 Y116.268 E18.10109
G1 X128.741 Y117.028 E18.19341
G1 X128.543 Y117.771 E18.28568
G1 X128.269 Y118.49 E18.37801
G1 X127.922 Y119.176 E18.47026
G1 X127.506 Y119.823 E18.56257
G1 X127.025 Y120.423 E18.65485
G1 X126.484 Y120.97 E18.74717
G1 X125.889 Y121.458 E18.83951
G1 X125.247 Y121.881 E18.93177
G1 X124.564 Y122.236 E19.02414
G1 X123.849 Y122.517 E19.11633
G1 X123.107 Y122.723 E19.20873
G1 X122.349 Y122.851 E19.30098
G1 X121.5 Y122.9 E19.40303
G1 X101.5 Y122.9 E21.80303
G1 X100.732 Y122.86 E21.89532
G1 X99.972 Y122.741 E21.98763
G1 X99.229 Y122.543 E22.0799
G1 X98.51 Y122.269 E22.17223
G1 X97.824 Y121.922 E22.26448
G1 X97.177 Y121.506 E22.35679
G1 X96.577 Y121.025 E22.44907
G1 X96.03 Y120.484 E22.54139
G1 X95.542 Y119.889 E22.63373
G1 X95.119 Y119.247 E22.72599
G1 X94.764 Y118.564 E22.81836
G1 X94.483 Y117.849 E22.91055
G1 X94.277 Y117.107 E23.00296
G1 X94.149 Y116.349 E23.09521
G1 X94.1 Y115.5 E23.19726
G1 X94.1 Y107.5 E24.15726
G1 X94.14 Y106.732 E24.24954
G1 X94.259 Y105.972 E24.34185
G1 X94.457 Y105.229 E24.43412
G1 X94.731 Y104.51 E24.52646
G1 X95.078 Y103.824 E24.61871
G1 X95.494 Y103.177 E24.71101
G1 X95.975 Y102.577 E24.80329
G1 X96.516 Y102.03 E24.89561
G0 F3600 X96.908 Y102.216
G1 F1800 X97.498 Y101.757 E24.98531
G1 X98.134 Y101.362 E25.07516
G1 X98.808 Y101.038 E25.1649
G1 X99.513 Y100.788 E25.25466
G1 X100.241 Y100.614 E25.34448
G1 X100.983 Y100.519 E25.43425
G1 X101.5 Y100.5 E25.49633
G1 X121.5 Y100.5 E27.89633
G1 X122.247 Y100.54 E27.9861
G1 X122.985 Y100.659 E28.0758
G1 X123.707 Y100.857 E28.16564
G1 X124.403 Y101.13 E28.25535
G1 X125.066 Y101.477 E28.34515
G1 X125.689 Y101.892 E28.43498
G1 X126.263 Y102.371 E28.52469
G1 X126.784 Y102.908 E28.61448
G1 X127.243 Y103.498 E28.70418
G1 X127.638 Y104.134 E28.79402
G1 X127.962 Y104.808 E28.88376
G1 X128.212 Y105.513 E28.97352
G1 X128.386 Y106.241 E29.06334
G1 X128.481 Y106.983 E29.15311
G1 X128.5 Y107.5 E29.21519
G1 X128.5 Y115.5 E30.17519
G1 X128.46 Y116.247 E30.26496
G1 X128.341 Y116.985 E30.35466
G1 X128.143 Y117.707 E30.4445
G1 X127.87 Y118.403 E30.53422
G1 X127.523 Y119.066 E30.62402
G1 X127.108 Y119.689 E30.71384
G1 X126.629 Y120.263 E30.80356
G1 X126.092 Y120.784 E30.89334
G1 X125.502 Y121.243 E30.98304
G1 X124.866 Y121.638 E31.07288
G1 X124.192 Y121.962 E31.16262
G1 X123.487 Y122.212 E31.25239
G1 X122.759 Y122.386 E31.34221
G1 X122.017 Y122.481 E31.43197
G1 X121.5 Y122.5 E31.49406
G1 X101.5 Y122.5 E33.89406
G1 X100.753 Y122.46 E33.98382
G1 X100.015 Y122.341 E34.07353
G1 X99.293 Y122.143 E34.16337
G1 X98.597 Y121.87 E34.25308
G1 X97.934 Y121.523 E34.34288
G1 X97.311 Y121.108 E34.43271
G1 X96.737 Y120.629 E34.52242
G1 X96.216 Y120.092 E34.61221
G1 X95.757 Y119.502 E34.70191
G1 X95.362 Y118.866 E34.79175
G1 X95.038 Y118.192 E34.88149
G1 X94.788 Y117.487 E34.97125
G1 X94.614 Y116.759 E35.06107
G1 X94.519 Y116.017 E35.15084
G1 X94.5 Y115.5 E35.21292
G1 X94.5 Y107.5 E36.17292
G1 X94.54 Y106.753 E36.26269
G1 X94.659 Y106.015 E36.35239
G1 X94.857 Y105.293 E36.44223
G1 X95.13 Y104.597 E36.53195
G1 X95.477 Y103.934 E36.62174
G1 X95.892 Y103.311 E36.71157
G1 X96.371 Y102.737 E36.80129
G1 X96.908 Y102.216 E36.89107
G0 F3600 X96.765 Y102.902
G1 F1800 X97.299 Y102.409 E36.97828
G1 X97.884 Y101.979 E37.06541
G1 X98.513 Y101.615 E37.15262
G1 X99.178 Y101.322 E37.23982
G1 X99.871 Y101.104 E37.327
G1 X100.583 Y100.964 E37.41407
G1 X101.5 Y100.9 E37.52438
G1 X121.5 Y100.9 E39.92438
G1 X122.225 Y100.94 E40.01151
G1 X122.942 Y101.059 E40.09873
G1 X123.641 Y101.257 E40.18591
G1 X124.314 Y101.53 E40.27306
G1 X124.953 Y101.875 E40.3602
G1 X125.55 Y102.289 E40.44738
G1 X126.098 Y102.765 E40.53449
G1 X126.591 Y103.299 E40.6217
G1 X127.021 Y103.884 E40.70882
G1 X127.385 Y104.513 E40.79603
G1 X127.678 Y105.178 E40.88323
G1 X127.896 Y105.871 E40.97041
G1 X128.036 Y106.583 E41.05749
G1 X128.1 Y107.5 E41.16779
G1 X128.1 Y115.5 E42.12779
G1 X128.06 Y116.225 E42.21493
G1 X127.941 Y116.942 E42.30214
G1 X127.743 Y117.641 E42.38932
G1 X127.47 Y118.314 E42.47648
G1 X127.125 Y118.953 E42.56362
G1 X126.711 Y119.55 E42.6508
G1 X126.235 Y120.098 E42.7379
G1 X125.701 Y120.591 E42.82512
G1 X125.116 Y121.021 E42.91224
G1 X124.487 Y121.385 E42.99945
G1 X123.822 Y121.678 E43.08665
G1 X123.129 Y121.896 E43.17383
G1 X122.417 Y122.036 E43.2609
G1 X121.5 Y122.1 E43.37121
G1 X101.5 Y122.1 E45.77121
G1 X100.775 Y122.06 E45.85834
G1 X100.058 Y121.941 E45.94556
G1 X99.359 Y121.743 E46.03274
G1 X98.686 Y121.47 E46.11989
G1 X98.047 Y121.125 E46.20703
G1 X97.45 Y120.711 E46.29421
G1 X96.902 Y120.235 E46.38132
G1 X96.409 Y119.701 E46.46853
G1 X95.979 Y119.116 E46.55566
G1 X95.615 Y118.487 E46.64286
G1 X95.322 Y117.822 E46.73007
G1 X95.104 Y117.129 E46.81724
G1 X94.964 Y116.417 E46.90432
G1 X94.9 Y115.5 E47.01463
G1 X94.9 Y107.5 E47.97463
G1 X94.94 Y106.775 E48.06176
G1 X95.059 Y106.058 E48.14898
G1 X95.257 Y105.359 E48.23616
G1 X95.53 Y104.686 E48.32331
G1 X95.875 Y104.047 E48.41045
G1 X96.289 Y103.45 E48.49763
G1 X96.765 Y102.902 E48.58473
G0 F3600 X97.159 Y103.073
G1 F1800 X97.689 Y102.609 E48.66926
G1 X98.268 Y102.209 E48.75371
G1 X98.889 Y101.877 E48.83821
G1 X99.543 Y101.617 E48.92267
G1 X100.223 Y101.433 E49.0072
G1 X100.919 Y101.327 E49.09169
G1 X101.5 Y101.3 E49.16148
G1 X121.5 Y101.3 E51.56148
G1 X122.203 Y101.34 E51.64598
G1 X122.897 Y101.459 E51.73047
G1 X123.572 Y101.657 E51.81489
G1 X124.221 Y101.929 E51.89933
G1 X124.835 Y102.274 E51.98384
G1 X125.406 Y102.685 E52.06827
G1 X125.927 Y103.159 E52.15279
G1 X126.391 Y103.689 E52.23732
G1 X126.791 Y104.268 E52.32177
G1 X127.123 Y104.889 E52.40627
G1 X127.383 Y105.543 E52.49072
G1 X127.567 Y106.223 E52.57526
G1 X127.673 Y106.919 E52.65974
G1 X127.7 Y107.5 E52.72954
G1 X127.7 Y115.5 E53.68954
G1 X127.66 Y116.203 E53.77403
G1 X127.541 Y116.897 E53.85853
G1 X127.343 Y117.572 E53.94294
G1 X127.071 Y118.221 E54.02738
G1 X126.726 Y118.835 E54.1119
G1 X126.315 Y119.406 E54.19632
G1 X125.841 Y119.927 E54.28085
G1 X125.311 Y120.391 E54.36537
G1 X124.732 Y120.791 E54.44982
G1 X124.111 Y121.123 E54.53432
G1 X123.457 Y121.383 E54.61878
G1 X122.777 Y121.567 E54.70331
G1 X122.081 Y121.673 E54.7878
G1 X121.5 Y121.7 E54.85759
G1 X101.5 Y121.7 E57.25759
G1 X100.797 Y121.66 E57.34209
G1 X100.103 Y121.541 E57.42658
G1 X99.428 Y121.343 E57.511
G1 X98.779 Y121.071 E57.59544
G1 X98.165 Y120.726 E57.67995
G1 X97.594 Y120.315 E57.76438
G1 X97.073 Y119.841 E57.8489
G1 X96.609 Y119.311 E57.93343
G1 X96.209 Y118.732 E58.01788
G1 X95.877 Y118.111 E58.10238
G1 X95.617 Y117.457 E58.18683
G1 X95.433 Y116.777 E58.27137
G1 X95.327 Y116.081 E58.35585
G1 X95.3 Y115.5 E58.42565
G1 X95.3 Y107.5 E59.38565
G1 X95.34 Y106.797 E59.47014
G1 X95.459 Y106.103 E59.55464
G1 X95.657 Y105.428 E59.63905
G1 X95.929 Y104.779 E59.72349
G1 X96.274 Y104.165 E59.80801
G1 X96.685 Y103.594 E59.89243
G1 X97.159 Y103.073 E59.97696
G0 F3600 X97.553 Y103.251
G1 F1800 X98.078 Y102.817 E60.0587
G1 X98.65 Y102.448 E60.14038
G1 X99.262 Y102.149 E60.22211
G1 X99.904 Y101.924 E60.30375
G1 X100.569 Y101.775 E60.38553
G1 X101.5 Y101.7 E60.49761
G1 X121.5 Y101.7 E62.89761
G1 X122.18 Y101.74 E62.97935
G1 X122.85 Y101.859 E63.06101
G1 X123.502 Y102.056 E63.14274
G1 X124.126 Y102.328 E63.22443
G1 X124.714 Y102.672 E63.30618
G1 X125.258 Y103.082 E63.38792
G1 X125.749 Y103.553 E63.46957
G1 X126.183 Y104.078 E63.5513
G1 X126.552 Y104.65 E63.63299
G1 X126.851 Y105.262 E63.71472
G1 X127.076 Y105.904 E63.79636
G1 X127.225 Y106.569 E63.87814
G1 X127.3 Y107.5 E63.99022
G1 X127.3 Y115.5 E64.95022
G1 X127.26 Y116.18 E65.03196
G1 X127.141 Y116.85 E65.11362
G1 X126.944 Y117.502 E65.19535
G1 X126.672 Y118.126 E65.27704
G1 X126.328 Y118.714 E65.35878
G1 X125.918 Y119.258 E65.44053
G1 X125.447 Y119.749 E65.52218
G1 X124.922 Y120.183 E65.60391
G1 X124.35 Y120.552 E65.6856
G1 X123.738 Y120.851 E65.76733
G1 X123.096 Y121.076 E65.84897
G1 X122.431 Y121.225 E65.93075
G1 X121.5 Y121.3 E66.04283
G1 X101.5 Y121.3 E68.44283
G1 X100.82 Y121.26 E68.52457
G1 X100.15 Y121.141 E68.60623
G1 X99.498 Y120.944 E68.68796
G1 X98.874 Y120.672 E68.76965
G1 X98.286 Y120.328 E68.85139
G1 X97.742 Y119.918 E68.93314
G1 X97.251 Y119.447 E69.01478
G1 X96.817 Y118.922 E69.09652
G1 X96.448 Y118.35 E69.17821
G1 X96.149 Y117.738 E69.25994
G1 X95.924 Y117.096 E69.34158
G1 X95.775 Y116.431 E69.42336
G1 X95.7 Y115.5 E69.53544
G1 X95.7 Y107.5 E70.49544
G1 X95.74 Y106.82 E70.57718
G1 X95.859 Y106.15 E70.65884
G1 X96.056 Y105.498 E70.74057
G1 X96.328 Y104.874 E70.82226
G1 X96.672 Y104.286 E70.904
G1 X97.082 Y103.742 E70.98575
G1 X97.553 Y103.251 E71.06739
G0 F3600 X97.945 Y103.435
G1 F1800 X98.465 Y103.034 E71.14619
G1 X99.029 Y102.698 E71.22497
G1 X99.631 Y102.434 E71.30385
G1 X100.26 Y102.244 E71.3827
G1 X100.907 Y102.133 E71.46148
G1 X101.5 Y102.1 E71.53275
G1 X121.5 Y102.1 E73.93275
G1 X122.156 Y102.14 E74.01161
G1 X122.802 Y102.259 E74.09044
G1 X123.429 Y102.456 E74.1693
G1 X124.027 Y102.728 E74.24814
G1 X124.588 Y103.07 E74.32698
G1 X125.103 Y103.478 E74.40583
G1 X125.565 Y103.945 E74.48465
G1 X125.966 Y104.465 E74.56345
G1 X126.302 Y105.029 E74.64223
G1 X126.566 Y105.631 E74.72112
G1 X126.756 Y106.26 E74.79996
G1 X126.867 Y106.907 E74.87874
G1 X126.9 Y107.5 E74.95001
G1 X126.9 Y115.5 E75.91001
G1 X126.86 Y116.156 E75.98887
G1 X126.741 Y116.802 E76.0677
G1 X126.544 Y117.429 E76.14656
G1 X126.272 Y118.027 E76.2254
G1 X125.93 Y118.588 E76.30424
G1 X125.522 Y119.103 E76.38309
G1 X125.055 Y119.565 E76.46192
G1 X124.535 Y119.966 E76.54071
G1 X123.971 Y120.302 E76.61949
G1 X123.369 Y120.566 E76.69838
G1 X122.74 Y120.756 E76.77722
G1 X122.093 Y120.867 E76.856
G1 X121.5 Y120.9 E76.92727
G1 X101.5 Y120.9 E79.32727
G1 X100.844 Y120.86 E79.40613
G1 X100.198 Y120.741 E79.48496
G1 X99.571 Y120.544 E79.56383
G1 X98.973 Y120.272 E79.64266
G1 X98.412 Y119.93 E79.7215
G1 X97.897 Y119.522 E79.80035
G1 X97.435 Y119.055 E79.87918
G1 X97.034 Y118.535 E79.95798
G1 X96.698 Y117.971 E80.03676
G1 X96.434 Y117.369 E80.11564
G1 X96.244 Y116.74 E80.19448
G1 X96.133 Y116.093 E80.27326
G1 X96.1 Y115.5 E80.34453
G1 X96.1 Y107.5 E81.30453
G1 X96.14 Y106.844 E81.3834
G1 X96.259 Y106.198 E81.46222
G1 X96.456 Y105.571 E81.54109
G1 X96.728 Y104.973 E81.61992
G1 X97.07 Y104.412 E81.69876
G1 X97.478 Y103.897 E81.77761
G1 X97.945 Y103.435 E81.85644
G0 F3600 X97.873 Y104.059
G1 F1800 X98.336 Y103.629 E81.93226
G1 X98.85 Y103.26 E82.00819
G1 X99.406 Y102.96 E82.084
G1 X99.995 Y102.732 E82.15979
G1 X100.609 Y102.58 E82.2357
G1 X101.5 Y102.5 E82.34305
G1 X121.5 Y102.5 E84.74305
G1 X122.131 Y102.54 E84.81892
G1 X122.752 Y102.659 E84.8948
G1 X123.352 Y102.856 E84.97058
G1 X123.924 Y103.127 E85.04653
G1 X124.456 Y103.467 E85.1223
G1 X124.941 Y103.873 E85.1982
G1 X125.371 Y104.336 E85.27402
G1 X125.74 Y104.85 E85.34995
G1 X126.04 Y105.406 E85.42576
G1 X126.268 Y105.995 E85.50155
G1 X126.42 Y106.609 E85.57746
G1 X126.5 Y107.5 E85.68481
G1 X126.5 Y115.5 E86.64481
G1 X126.46 Y116.131 E86.72068
G1 X126.341 Y116.752 E86.79656
G1 X126.144 Y117.352 E86.87234
G1 X125.873 Y117.924 E86.94829
G1 X125.533 Y118.456 E87.02406
G1 X125.127 Y118.941 E87.09996
G1 X124.664 Y119.371 E87.17578
G1 X124.15 Y119.74 E87.25171
G1 X123.594 Y120.04 E87.32752
G1 X123.005 Y120.268 E87.40331
G1 X122.391 Y120.42 E87.47922
G1 X121.5 Y120.5 E87.58657
G1 X101.5 Y120.5 E89.98657
G1 X100.869 Y120.46 E90.06244
G1 X100.248 Y120.341 E90.13831
G1 X99.648 Y120.144 E90.2141
G1 X99.076 Y119.873 E90.29005
G1 X98.544 Y119.533 E90.36581
G1 X98.059 Y119.127 E90.44171
G1 X97.629 Y118.664 E90.51754
G1 X97.26 Y118.15 E90.59347
G1 X96.96 Y117.594 E90.66928
G1 X96.732 Y117.005 E90.74507
G1 X96.58 Y116.391 E90.82098
G1 X96.5 Y115.5 E90.92833
G1 X96.5 Y107.5 E91.88833
G1 X96.54 Y106.869 E91.9642
G1 X96.659 Y106.248 E92.04007
G1 X96.856 Y105.648 E92.11586
G1 X97.127 Y105.076 E92.19181
G1 X97.467 Y104.544 E92.26757
G1 X97.873 Y104.059 E92.34347
G0 F3600 X98.267 Y104.228
G1 F1800 X98.725 Y103.831 E92.41621
G1 X99.232 Y103.498 E92.489
G1 X99.778 Y103.234 E92.56177
G1 X100.354 Y103.045 E92.63452
G1 X100.95 Y102.933 E92.70729
G1 X101.5 Y102.9 E92.77341
G1 X121.5 Y102.9 E95.17341
G1 X122.105 Y102.94 E95.24617
G1 X122.699 Y103.059 E95.31887
G1 X123.273 Y103.255 E95.39165
G1 X123.816 Y103.526 E95.46447
G1 X124.319 Y103.865 E95.53726
G1 X124.772 Y104.267 E95.60994
G1 X125.169 Y104.725 E95.68267
G1 X125.502 Y105.232 E95.75546
G1 X125.766 Y105.778 E95.82824
G1 X125.955 Y106.354 E95.90099
G1 X126.067 Y106.95 E95.97376
G1 X126.1 Y107.5 E96.03988
G1 X126.1 Y115.5 E96.99988
G1 X126.06 Y116.105 E97.07264
G1 X125.941 Y116.699 E97.14533
G1 X125.745 Y117.273 E97.21812
G1 X125.474 Y117.816 E97.29094
G1 X125.135 Y118.319 E97.36373
G1 X124.733 Y118.772 E97.43641
G1 X124.275 Y119.169 E97.50914
G1 X123.768 Y119.502 E97.58193
G1 X123.222 Y119.766 E97.65471
G1 X122.646 Y119.955 E97.72745
G1 X122.05 Y120.067 E97.80023
G1 X121.5 Y120.1 E97.86635
G1 X101.5 Y120.1 E100.26635
G1 X100.895 Y120.06 E100.3391
G1 X100.301 Y119.941 E100.4118
G1 X99.727 Y119.745 E100.48458
G1 X99.184 Y119.474 E100.55741
G1 X98.681 Y119.135 E100.6302
G1 X98.228 Y118.733 E100.70288
G1 X97.831 Y118.275 E100.77561
G1 X97.498 Y117.768 E100.8484
G1 X97.234 Y117.222 E100.92118
